; generated by PrusaSlicer 2.5.0+win64 on 2022-12-02 at 20:17:31 UTC


;
;

;
;
; 

; external perimeters extrusion width = 0.45mm
; perimeters extrusion width = 0.45mm
; infill extrusion width = 0.45mm
; solid infill extrusion width = 0.45mm
; top infill extrusion width = 0.40mm
; first layer extrusion width = 0.42mm

M73 P0 R31
M201 X2500 Y2500 Z400 E5000 ; sets maximum accelerations, mm/sec^2
M203 X180 Y180 Z12 E80 ; sets maximum feedrates, mm / sec
M204 P1250 R1250 T2500 ; sets acceleration (P, T) and retract acceleration (R), mm/sec^2
M205 X8.00 Y8.00 Z2.00 E10.00 ; sets the jerk limits, mm/sec
M205 S0 T0 ; sets the minimum extruding and travel feed rate, mm/sec
M107
;TYPE:Custom
M862.3 P "MINI" ; printer model check
G90 ; use absolute coordinates
M83 ; extruder relative mode
M104 S170 ; set extruder temp for bed leveling
M140 S60 ; set bed temp
M109 R170 ; wait for bed leveling temp
M190 S60 ; wait for bed temp
M204 T1250 ; set travel acceleration
G28 ; home all without mesh bed level
G29 ; mesh bed leveling 
M204 T2500 ; restore travel acceleration
M104 S215 ; set extruder temp
G92 E0
G1 Y-2 X179 F2400
G1 Z3 F720
M109 S215 ; wait for extruder temp

; intro line
G1 X170 F1000
G1 Z0.2 F720
G1 X110 E8 F900
G1 X40 E10 F700
G92 E0

M221 S95 ; set flow
G21 ; set units to millimeters
G90 ; use absolute coordinates
M83 ; use relative distances for extrusion
M900 K0.2 ; Filament gcode LA 1.5
; ; Filament gcode LA 1.0
M107
;LAYER_CHANGE
;Z:0.2
;HEIGHT:0.2
;BEFORE_LAYER_CHANGE
G92 E0.0
;0.2


G1 E-3.2 F4200
G1 Z.2 F720
;AFTER_LAYER_CHANGE
;0.2
G1 Z.4
G1 X81.379 Y80.249 F9000
G1 Z.2 F720
G1 E3.2 F2400
M204 P800
;TYPE:Skirt/Brim
;WIDTH:0.42
G1 F1200
G1 X82.327 Y79.446 E.03896
G1 X83.369 Y78.879 E.03718
G1 X84.797 Y78.431 E.04693
G1 X86.234 Y78.247 E.04542
G1 X93.881 Y78.25 E.23976
G1 X94.808 Y78.349 E.02923
G1 X96.036 Y78.661 E.03973
G1 X96.968 Y79.033 E.03148
G1 X97.779 Y79.52 E.02964
G1 X98.519 Y80.145 E.03037
G1 X99.191 Y80.942 E.0327
G1 X99.678 Y81.769 E.0301
G1 X100.021 Y82.648 E.02957
G1 X100.265 Y84.175 E.0485
G1 X100.172 Y85.475 E.04087
G1 X98.636 Y91.266 E.18784
G1 X98.144 Y92.457 E.04042
G1 X97.221 Y93.7 E.04852
G1 X96.428 Y94.397 E.03313
G1 X95.159 Y95.093 E.04536
G1 X93.999 Y95.421 E.03779
G1 X92.957 Y95.509 E.03279
G1 X86.572 Y95.492 E.2002
G1 X85.284 Y95.249 E.0411
G1 X83.979 Y94.666 E.04482
G1 X83.382 Y94.254 E.02274
M73 P1 R31
G1 X82.779 Y93.7 E.02568
G1 X82.047 Y92.767 E.03717
G1 X81.7 Y92.152 E.02214
G1 X81.33 Y91.148 E.03355
G1 X79.911 Y85.848 E.17204
M73 P1 R30
G1 X79.73 Y84.623 E.03884
G1 X79.798 Y83.528 E.03438
G1 X80.042 Y82.453 E.03458
G1 X80.571 Y81.309 E.03951
G1 X81.343 Y80.297 E.03991
M204 P1000
G1 X81.642 Y80.532 F9000
M204 P800
G1 F1200
G1 X81.688 Y80.473 E.00234
G1 X82.641 Y79.69 E.03868
G1 X83.631 Y79.179 E.03492
G1 X85.076 Y78.756 E.04722
G1 X86.234 Y78.624 E.03653
G1 X93.866 Y78.626 E.2393
G1 X94.736 Y78.719 E.02745
G1 X95.923 Y79.02 E.03838
G1 X96.815 Y79.378 E.03013
G1 X97.556 Y79.824 E.02713
G1 X98.25 Y80.409 E.02845
G1 X98.88 Y81.156 E.03063
G1 X99.337 Y81.93 E.02819
G1 X99.675 Y82.806 E.02945
G1 X99.889 Y84.205 E.04437
G1 X99.802 Y85.402 E.03762
G1 X98.276 Y91.154 E.18659
G1 X97.813 Y92.277 E.03809
G1 X96.937 Y93.452 E.04594
G1 X96.011 Y94.226 E.03785
G1 X95.005 Y94.748 E.03554
G1 X93.721 Y95.082 E.0416
G1 X86.604 Y95.117 E.22317
G1 X85.389 Y94.887 E.03875
G1 X84.168 Y94.339 E.04198
G1 X83.063 Y93.452 E.04442
G1 X82.356 Y92.551 E.03591
G1 X82.039 Y91.986 E.02032
G1 X81.694 Y91.05 E.03125
G1 X80.277 Y85.758 E.17178
G1 X80.106 Y84.586 E.03715
G1 X80.182 Y83.516 E.03363
G1 X80.429 Y82.489 E.03312
G1 X80.948 Y81.415 E.03739
G1 X81.605 Y80.579 E.03335
M204 P1000
G1 X81.902 Y80.82 F9000
M204 P800
G1 F1200
G1 X82.028 Y80.665 E.00628
G1 X82.939 Y79.947 E.03636
G1 X83.874 Y79.489 E.03263
G1 X85.214 Y79.113 E.04366
G1 X86.234 Y79.002 E.03215
G1 X93.851 Y79.003 E.23883
G1 X94.773 Y79.11 E.0291
G1 X95.81 Y79.38 E.0336
G1 X96.649 Y79.717 E.02834
G1 X97.334 Y80.129 E.02507
G1 X97.981 Y80.674 E.02653
G1 X98.554 Y81.348 E.02774
G1 X98.996 Y82.091 E.02711
G1 X99.316 Y82.923 E.02793
G1 X99.513 Y84.235 E.04162
G1 X99.405 Y85.464 E.03868
G1 X97.916 Y91.042 E.18102
G1 X97.692 Y91.666 E.02079
G1 X97.346 Y92.317 E.0231
G1 X96.653 Y93.204 E.03529
G1 X95.798 Y93.915 E.03487
G1 X94.873 Y94.395 E.03266
G1 X93.678 Y94.708 E.03875
G1 X86.61 Y94.739 E.22161
G1 X85.33 Y94.47 E.04101
G1 X84.197 Y93.912 E.03961
G1 X83.573 Y93.431 E.02468
G1 X83.103 Y92.923 E.02172
G1 X82.665 Y92.334 E.023
G1 X82.312 Y91.676 E.02341
G1 X82.058 Y90.953 E.02403
G1 X80.612 Y85.542 E.1756
G1 X80.48 Y84.482 E.03352
G1 X80.572 Y83.469 E.03189
G1 X80.817 Y82.524 E.03059
G1 X81.31 Y81.549 E.03427
G1 X81.864 Y80.867 E.02755
M204 P1000
; printing object Astronaut_Phil_A_Ment.STL id:0 copy 0
G1 E-2.24 F4200
;WIPE_START
G1 F7200
G1 X82.028 Y80.665 E-.14431
G1 X82.939 Y79.947 E-.64269
G1 X83.142 Y79.848 E-.12499
;WIPE_END
G1 E-.048 F4200
G1 Z.4 F720
G1 X89.896 Y90.728 F9000
G1 Z.2 F720
G1 E3.2 F2400
M204 P800
;TYPE:External perimeter
;WIDTH:0.636032
G1 F1200
G1 X90.1 Y90.726 E.01006
M204 P1000
G1 X89.896 Y90.728 F9000
M204 P800
;WIDTH:0.634718
G1 F1200
G1 X89.842 Y90.809 E.00479
;WIDTH:0.587466
G1 X89.788 Y90.89 E.00441
;WIDTH:0.540214
G1 X89.734 Y90.971 E.00403
;WIDTH:0.492962
G1 X89.681 Y91.052 E.00364
;WIDTH:0.467293
G1 X89.302 Y91.277 E.01554
G1 X88.619 Y91.573 E.02626
;WIDTH:0.480429
G1 X87.606 Y91.861 E.03831
G1 X87.175 Y91.949 E.01603
;WIDTH:0.466638
G1 X86.61 Y91.998 E.01997
;WIDTH:0.462754
G1 X86.102 Y91.978 E.01776
;WIDTH:0.424474
G1 X85.632 Y91.735 E.01677
G1 X86.123 Y91.6 E.01617
;WIDTH:0.463495
G1 X87.068 Y91.538 E.0331
;WIDTH:0.480429
G1 X88.507 Y91.166 E.05406
;WIDTH:0.471478
G1 X89.45 Y90.732 E.03699
;WIDTH:0.492962
G1 X89.561 Y90.731 E.00417
;WIDTH:0.540214
G1 X89.673 Y90.73 E.00461
;WIDTH:0.587466
G1 X89.784 Y90.729 E.00505
;WIDTH:0.634718
G1 X89.836 Y90.728 E.00253
M204 P1000
G1 X90.163 Y90.816 F9000
M204 P800
;WIDTH:0.636032
G1 F1200
G1 X90.1 Y90.726 E.00542
G1 X90.175 Y90.721 E.00373
;WIDTH:0.599424
G1 X90.25 Y90.716 E.0035
;WIDTH:0.562816
G1 X90.349 Y90.723 E.00427
;WIDTH:0.522076
G1 X90.447 Y90.73 E.00393
;WIDTH:0.481336
G1 X90.546 Y90.737 E.0036
;WIDTH:0.455275
G1 X91.114 Y91.025 E.02183
;WIDTH:0.482373
G1 X92.469 Y91.44 E.05181
;WIDTH:0.476574
G1 X93.433 Y91.595 E.03519
;WIDTH:0.453928
G1 X93.899 Y91.613 E.01593
;WIDTH:0.438285
G1 X94.361 Y91.738 E.01573
G1 X94.166 Y91.865 E.00766
G1 X93.831 Y91.99 E.01175
;WIDTH:0.453928
G1 X93.383 Y92.003 E.01531
;WIDTH:0.476574
G1 X92.806 Y91.943 E.0209
G1 X92.359 Y91.844 E.01652
;WIDTH:0.482373
G1 X91.628 Y91.654 E.02759
G1 X90.904 Y91.38 E.02831
;WIDTH:0.453177
G1 X90.354 Y91.085 E.02128
;WIDTH:0.489455
G1 X90.291 Y90.995 E.00408
;WIDTH:0.538314
G1 X90.227 Y90.906 E.00453
;WIDTH:0.587173
G1 X90.198 Y90.865 E.00226
M204 P1000
G1 E-2.24 F4200
;WIPE_START
G1 F7200
G1 X90.1 Y90.726 E-.09418
G1 X90.175 Y90.721 E-.04187
G1 X90.25 Y90.716 E-.04187
G1 X90.349 Y90.723 E-.05468
G1 X90.447 Y90.73 E-.05468
G1 X90.546 Y90.737 E-.05468
G1 X91.114 Y91.025 E-.35282
G1 X91.488 Y91.139 E-.21721
;WIPE_END
G1 E-.048 F4200
G1 Z.4 F720
G1 X95.15 Y90.509 F9000
G1 Z.2 F720
G1 E3.2 F2400
M204 P800
;WIDTH:0.42002
G1 F1200
G1 X94.636 Y90.39 E.01657
;WIDTH:0.42147
G1 X90.971 Y89.411 E.1194
;WIDTH:0.424995
G1 X90.504 Y89.302 E.01522
G1 X89.968 Y89.23 E.01718
;WIDTH:0.419565
G1 X89.314 Y89.336 E.02075
;WIDTH:0.419905
G1 X85.381 Y90.386 E.12762
G1 X84.85 Y90.507 E.01707
;WIDTH:0.403655
G1 X84.74 Y90.184 E.01025
;WIDTH:0.419905
G1 X85.283 Y90.022 E.01777
G1 X89.217 Y88.972 E.12762
;WIDTH:0.420408
G1 X89.266 Y88.96 E.00157
;WIDTH:0.421047
G1 X90.062 Y88.854 E.02525
;WIDTH:0.424995
G1 X90.571 Y88.926 E.01635
G1 X91.067 Y89.045 E.01618
;WIDTH:0.42147
G1 X94.733 Y90.026 E.11947
;WIDTH:0.42002
G1 X94.781 Y90.041 E.00158
;WIDTH:0.41899
G1 X95.26 Y90.186 E.01565
;WIDTH:0.402082
G1 X95.17 Y90.452 E.0084
M204 P1000
G1 E-2.24 F4200
;WIPE_START
G1 F7200
G1 X94.636 Y90.39 E-.29801
G1 X93.565 Y90.104 E-.61399
;WIPE_END
G1 E-.048 F4200
G1 Z.4 F720
G1 X90.279 Y87.046 F9000
G1 Z.2 F720
G1 E3.2 F2400
M204 P800
;WIDTH:0.500569
G1 F1200
G1 X90.349 Y86.937 E.00493
G1 X90.845 Y87.056 E.0194
;WIDTH:0.452246
G1 X91.543 Y87.223 E.02445
;WIDTH:0.420057
G1 X95.253 Y88.209 E.12036
G1 X95.759 Y88.364 E.01661
;WIDTH:0.404729
G1 X95.715 Y88.53 E.00517
G1 X95.671 Y88.695 E.00512
;WIDTH:0.420057
G1 X95.156 Y88.573 E.01659
G1 X91.447 Y87.585 E.12036
;WIDTH:0.417933
G1 X91.428 Y87.58 E.0006
;WIDTH:0.460529
G1 X90.719 Y87.449 E.02505
G1 X90.408 Y87.476 E.01083
;WIDTH:0.424716
G1 X90.098 Y87.503 E.0099
;WIDTH:0.437894
G1 X89.832 Y87.472 E.00878
;WIDTH:0.486885
G1 X89.567 Y87.441 E.00986
G1 X89.259 Y87.454 E.01137
;WIDTH:0.454052
G1 X88.547 Y87.587 E.02476
;WIDTH:0.420034
G1 X84.816 Y88.581 E.12108
;WIDTH:0.418391
G1 X84.328 Y88.694 E.01565
;WIDTH:0.401739
G1 X84.239 Y88.364 E.01018
;WIDTH:0.420034
G1 X84.792 Y88.197 E.01812
G1 X88.451 Y87.225 E.1187
;WIDTH:0.418014
G1 X88.489 Y87.216 E.00121
;WIDTH:0.457653
G1 X89.071 Y87.076 E.02063
;WIDTH:0.497292
G1 X89.652 Y86.936 E.02261
G1 X89.761 Y87.104 E.00755
;WIDTH:0.486885
G1 X89.857 Y87.122 E.00362
;WIDTH:0.453372
G1 X89.953 Y87.141 E.00334
;WIDTH:0.419858
G1 X90.05 Y87.159 E.00307
;WIDTH:0.421279
G1 X90.113 Y87.141 E.00209
;WIDTH:0.456214
G1 X90.177 Y87.123 E.00228
;WIDTH:0.491149
G1 X90.241 Y87.105 E.00247
;WIDTH:0.500569
G1 X90.246 Y87.096 E.00036
M204 P1000
G1 E-2.24 F4200
;WIPE_START
G1 F7200
G1 X90.349 Y86.937 E-.10511
G1 X90.845 Y87.056 E-.28259
G1 X91.543 Y87.223 E-.39808
G1 X91.763 Y87.282 E-.12622
;WIPE_END
G1 E-.048 F4200
G1 Z.4 F720
G1 X89.369 Y85.565 F9000
G1 Z.2 F720
G1 E3.2 F2400
M204 P800
;WIDTH:0.419999
G1 F1200
G1 X83.7 Y87.084 E.18403
G1 X83.522 Y86.419 E.02157
G1 X89.191 Y84.9 E.18403
G1 X89.354 Y85.507 E.01969
M204 P1000
G1 X88.979 Y85.653 F9000
G1 E-2.24 F4200
;WIPE_START
G1 F7200
G1 X87.769 Y85.949 E-.912
;WIPE_END
G1 E-.048 F4200
G1 Z.4 F720
G1 X83.943 Y86.663 F9000
G1 Z.2 F720
G1 E3.2 F2400
M204 P800
;TYPE:Perimeter
;WIDTH:0.353708
G1 F1200
G1 X88.948 Y85.321 E.1339
M204 P1000
G1 E-2.24 F4200
;WIPE_START
G1 F7200
G1 X87.359 Y85.747 E-.912
;WIPE_END
G1 E-.048 F4200
G1 Z.4 F720
G1 X90.631 Y85.565 F9000
G1 Z.2 F720
G1 E3.2 F2400
M204 P800
;TYPE:External perimeter
;WIDTH:0.419999
G1 F1200
G1 X90.809 Y84.9 E.02157
G1 X96.478 Y86.419 E.18403
G1 X96.3 Y87.084 E.02157
G1 X90.688 Y85.58 E.18215
M204 P1000
G1 X90.902 Y85.271 F9000
G1 X91.052 Y85.321
M204 P800
;TYPE:Perimeter
;WIDTH:0.353704
G1 F1200
G1 X96.057 Y86.663 E.1339
M204 P1000
G1 E-2.24 F4200
;WIPE_START
G1 F7200
G1 X94.467 Y86.237 E-.912
;WIPE_END
G1 E-.048 F4200
G1 Z.4 F720
G1 X91.123 Y83.74 F9000
G1 Z.2 F720
G1 E3.2 F2400
M204 P800
;TYPE:External perimeter
;WIDTH:0.419999
G1 F1200
G1 X91.346 Y83.089 E.02158
G1 X96.918 Y84.582 E.18085
G1 X96.896 Y84.805 E.00702
G1 X96.786 Y85.257 E.0146
G1 X91.181 Y83.755 E.18193
M204 P1000
G1 X91.411 Y83.463 F9000
G1 X91.549 Y83.499
M204 P800
;TYPE:Perimeter
;WIDTH:0.352518
G1 F1200
G1 X96.538 Y84.835 E.13294
M204 P1000
G1 E-2.24 F4200
;WIPE_START
G1 F7200
G1 X94.948 Y84.409 E-.912
;WIPE_END
G1 E-.048 F4200
G1 Z.4 F720
G1 X88.782 Y83.686 F9000
G1 Z.2 F720
G1 E3.2 F2400
M204 P800
;TYPE:External perimeter
;WIDTH:0.57254
G1 F1200
G1 X88.522 Y83.756 E.01186
G1 X88.394 Y83.81 E.00611
;WIDTH:0.534405
G1 X88.266 Y83.864 E.00567
;WIDTH:0.49627
G1 X88.138 Y83.918 E.00523
;WIDTH:0.458135
G1 X88.011 Y83.972 E.00479
;WIDTH:0.419999
G1 X83.214 Y85.257 E.15569
G1 X83.082 Y84.582 E.02157
G1 X87.834 Y83.313 E.15422
;WIDTH:0.458149
G1 X87.936 Y83.305 E.00351
;WIDTH:0.496298
G1 X88.037 Y83.298 E.00384
;WIDTH:0.534448
G1 X88.139 Y83.29 E.00416
;WIDTH:0.57254
G1 X88.24 Y83.283 E.00448
G1 X88.613 Y83.184 E.01699
G1 X88.685 Y83.347 E.00789
G1 X88.766 Y83.629 E.01288
M204 P1000
G1 E-2.24 F4200
;WIPE_START
G1 F7200
G1 X88.522 Y83.756 E-.15233
G1 X88.394 Y83.81 E-.07693
G1 X88.266 Y83.864 E-.07693
G1 X88.138 Y83.918 E-.07693
G1 X88.011 Y83.972 E-.07693
G1 X87.223 Y84.183 E-.45193
;WIPE_END
G1 E-.048 F4200
G1 Z.4 F720
G1 X83.462 Y84.836 F9000
G1 Z.2 F720
G1 E3.2 F2400
M204 P800
;TYPE:Perimeter
;WIDTH:0.35193
G1 F1200
G1 X87.922 Y83.642 E.11862
M204 P1000
G1 E-2.24 F4200
;WIPE_START
G1 F7200
G1 X86.332 Y84.068 E-.912
;WIPE_END
G1 E-.048 F4200
G1 Z.4 F720
G1 X92.206 Y82.072 F9000
G1 Z.2 F720
G1 E3.2 F2400
M204 P800
;TYPE:External perimeter
;WIDTH:0.419999
G1 F1200
G1 X92.297 Y82 E.00365
G1 X92.756 Y81.77 E.01609
G1 X93.22 Y81.634 E.01517
G1 X93.725 Y81.593 E.01589
G1 X94.181 Y81.632 E.01436
G1 X94.854 Y81.792 E.02167
G1 X95.378 Y81.981 E.01747
G1 X95.783 Y82.205 E.01453
G1 X96.119 Y82.475 E.0135
G1 X96.429 Y82.828 E.01473
G1 X96.686 Y83.273 E.01611
G1 X92.264 Y82.087 E.14356
M204 P1000
G1 X92.313 Y82.028 F9000
G1 X93.761 Y82.032
M204 P800
;TYPE:Perimeter
;WIDTH:0.584374
G1 F1200
G1 X94.239 Y82.141 E.02207
;WIDTH:0.62104
G1 X94.717 Y82.251 E.02356
G1 X95.224 Y82.409 E.02553
M204 P1000
G1 E-2.24 F4200
;WIPE_START
G1 F7200
G1 X94.717 Y82.251 E-.29432
G1 X94.239 Y82.141 E-.27162
G1 X93.761 Y82.032 E-.27162
;WIPE_END
G1 E-.12243 F4200
G1 Z.4 F720
G1 X87.794 Y82.072 F9000
G1 Z.2 F720
G1 E3.2 F2400
M204 P800
;TYPE:External perimeter
;WIDTH:0.419999
G1 F1200
M73 P2 R30
G1 X83.314 Y83.273 E.14545
G1 X83.551 Y82.855 E.01506
G1 X83.846 Y82.51 E.01425
G1 X84.167 Y82.24 E.01316
G1 X84.588 Y81.992 E.01531
G1 X85.158 Y81.789 E.01897
G1 X85.785 Y81.64 E.02022
G1 X86.238 Y81.593 E.01427
G1 X86.745 Y81.631 E.01593
G1 X87.244 Y81.77 E.01626
G1 X87.747 Y82.035 E.01781
M204 P1000
G1 X87.395 Y82.089 F9000
G1 E-2.24 F4200
;WIPE_START
G1 F7200
G1 X86.162 Y82.478 E-.912
;WIPE_END
G1 E-.048 F4200
G1 Z.4 F720
G1 X84.78 Y82.408 F9000
G1 Z.2 F720
G1 E3.2 F2400
M204 P800
;TYPE:Perimeter
;WIDTH:0.621256
G1 F1200
G1 X85.294 Y82.247 E.02591
G1 X85.894 Y82.096 E.02974
;WIDTH:0.603724
G1 X86.086 Y82.061 E.0091
;WIDTH:0.570641
G1 X86.278 Y82.027 E.00857
M204 P1000
; stop printing object Astronaut_Phil_A_Ment.STL id:0 copy 0
M106 S84.15
;LAYER_CHANGE
;Z:0.4
;HEIGHT:0.2
;BEFORE_LAYER_CHANGE
G92 E0.0
;0.4


G1 E-2.24 F4200
;WIPE_START
G1 F7200
G1 X86.086 Y82.061 E-.1082
G1 X85.894 Y82.096 E-.1082
G1 X85.294 Y82.247 E-.34278
G1 X84.78 Y82.408 E-.29862
;WIPE_END
G1 E-.10221 F4200
G1 Z.4 F720
;AFTER_LAYER_CHANGE
;0.4
M104 S210 ; set temperature
G1 Z.6
G1 X82.974 Y79.094 F9000
G1 Z.4 F720
G1 E3.2 F2400
;TYPE:Skirt/Brim
;WIDTH:0.42
G1 X83.369 Y78.879 E.01409
G1 X84.797 Y78.431 E.04693
G1 X86.234 Y78.247 E.04542
G1 X93.881 Y78.25 E.23976
G1 X94.808 Y78.349 E.02923
G1 X96.036 Y78.661 E.03973
G1 X96.968 Y79.033 E.03148
G1 X97.779 Y79.52 E.02964
G1 X98.519 Y80.145 E.03037
G1 X99.191 Y80.942 E.0327
G1 X99.678 Y81.769 E.0301
G1 X100.021 Y82.648 E.02957
G1 X100.265 Y84.175 E.0485
G1 X100.172 Y85.475 E.04087
G1 X98.636 Y91.266 E.18784
G1 X98.144 Y92.457 E.04042
G1 X97.221 Y93.7 E.04852
G1 X96.428 Y94.397 E.03313
G1 X95.159 Y95.093 E.04536
G1 X93.999 Y95.421 E.03779
G1 X92.957 Y95.509 E.03279
G1 X86.572 Y95.492 E.2002
G1 X85.284 Y95.249 E.0411
G1 X83.979 Y94.666 E.04482
G1 X83.382 Y94.254 E.02274
G1 X82.779 Y93.7 E.02568
G1 X82.047 Y92.767 E.03717
G1 X81.7 Y92.152 E.02214
G1 X81.33 Y91.148 E.03355
G1 X79.911 Y85.848 E.17204
G1 X79.73 Y84.623 E.03884
G1 X79.798 Y83.528 E.03438
G1 X80.042 Y82.453 E.03458
G1 X80.571 Y81.309 E.03951
G1 X81.379 Y80.249 E.04179
G1 X82.327 Y79.446 E.03896
G1 X82.921 Y79.122 E.02121
G1 X83.094 Y79.456 F9000
G1 F2400
G1 X83.631 Y79.179 E.01895
G1 X85.076 Y78.756 E.04722
G1 X86.234 Y78.624 E.03653
G1 X93.866 Y78.626 E.2393
G1 X94.736 Y78.719 E.02745
G1 X95.923 Y79.02 E.03838
G1 X96.815 Y79.378 E.03013
G1 X97.556 Y79.824 E.02713
G1 X98.25 Y80.409 E.02845
G1 X98.88 Y81.156 E.03063
G1 X99.337 Y81.93 E.02819
G1 X99.675 Y82.806 E.02945
G1 X99.889 Y84.205 E.04437
G1 X99.802 Y85.402 E.03762
G1 X98.276 Y91.154 E.18659
G1 X97.813 Y92.277 E.03809
G1 X96.937 Y93.452 E.04594
G1 X96.011 Y94.226 E.03785
G1 X95.005 Y94.748 E.03554
G1 X93.721 Y95.082 E.0416
G1 X86.604 Y95.117 E.22317
G1 X85.389 Y94.887 E.03875
G1 X84.168 Y94.339 E.04198
G1 X83.063 Y93.452 E.04442
G1 X82.356 Y92.551 E.03591
G1 X82.039 Y91.986 E.02032
