; generated by PrusaSlicer 2.5.0+linux-x64-GTK3 on 2022-09-22 at 19:34:04 UTC

; 

; external perimeters extrusion width = 0.42mm
; perimeters extrusion width = 0.44mm
; infill extrusion width = 0.44mm
; solid infill extrusion width = 0.44mm
; top infill extrusion width = 0.40mm
; first layer extrusion width = 0.42mm

M107
;TYPE:Custom
G90 ; use absolute coordinates
M83 ; extruder relative mode
M140 S60 ; set final bed temp
M104 S150 ; set temporary nozzle temp to prevent oozing during homing
G4 S10 ; allow partial nozzle warmup
G28 ; home all axis
G1 Z50 F240
G1 X2 Y10 F3000
M104 S210 ; set final nozzle temp
M190 S60 ; wait for bed temp to stabilize
M109 S210 ; wait for nozzle temp to stabilize
G1 Z0.28 F240
G92 E0
G1 Y140 E10 F1500 ; prime the nozzle
G1 X2.3 F5000
G92 E0
G1 Y10 E10 F1200 ; prime the nozzle
G92 E0
G21 ; set units to millimeters
G90 ; use absolute coordinates
M83 ; use relative distances for extrusion
; Filament gcode
M107
;LAYER_CHANGE
;Z:0.2
;HEIGHT:0.2
;BEFORE_LAYER_CHANGE
G92 E0
;0.2


G1 E-10 F3600
G1 Z.2 F9000
;AFTER_LAYER_CHANGE
;0.2
G1 X100.781 Y99.98
G1 E10 F2400
M204 S500
;TYPE:Skirt/Brim
;WIDTH:0.42
G1 F1200
G1 X101.842 Y99.027 E.0447
G1 X102.985 Y98.367 E.04139
G1 X104.389 Y97.89 E.0465
G1 X106.083 Y97.628 E.05373
G1 X113.905 Y97.628 E.24526
G1 X114.925 Y97.738 E.03217
G1 X116.222 Y98.067 E.04196
G1 X117.239 Y98.473 E.03435
G1 X118.145 Y99.017 E.03313
G1 X118.962 Y99.708 E.03354
G1 X119.611 Y100.461 E.03118
G1 X120.167 Y101.357 E.03305
G1 X120.585 Y102.367 E.03428
G1 X120.795 Y103.293 E.02975
G1 X120.886 Y104.126 E.02628
G1 X120.788 Y105.566 E.04527
G1 X119.23 Y111.451 E.19085
G1 X118.691 Y112.755 E.04427
G1 X117.69 Y114.109 E.05278
G1 X116.782 Y114.909 E.03795
G1 X115.378 Y115.676 E.05016
G1 X114.117 Y116.032 E.04108
G1 X112.957 Y116.132 E.03651
G1 X106.52 Y116.113 E.20181
G1 X105.111 Y115.847 E.04498
G1 X103.668 Y115.205 E.04951
G1 X102.989 Y114.737 E.02586
G1 X102.31 Y114.109 E.029
G1 X101.538 Y113.125 E.03924
G1 X101.142 Y112.427 E.02515
G1 X100.729 Y111.309 E.03736
G1 X99.326 Y106.076 E.16986
G1 X99.112 Y104.733 E.04266
G1 X99.174 Y103.503 E.03859
G1 X99.451 Y102.258 E.04001
G1 X99.967 Y101.11 E.03945
G1 X100.746 Y100.028 E.0418
G1 X101.059 Y100.267 F9000
G1 F1200
G1 X101.203 Y100.078 E.00745
G1 X102.191 Y99.242 E.04058
G1 X103.271 Y98.654 E.03855
G1 X104.654 Y98.213 E.04551
G1 X106.098 Y98.005 E.04575
G1 X113.89 Y98.004 E.24432
G1 X114.854 Y98.108 E.03039
G1 X116.109 Y98.427 E.04061
G1 X117.075 Y98.813 E.03261
G1 X117.923 Y99.322 E.03101
G1 X118.693 Y99.973 E.03162
G1 X119.393 Y100.803 E.03404
G1 X119.9 Y101.665 E.03134
G1 X120.256 Y102.578 E.03072
G1 X120.51 Y104.156 E.05012
G1 X120.413 Y105.523 E.04298
G1 X118.87 Y111.339 E.18864
G1 X118.36 Y112.575 E.04194
G1 X117.406 Y113.861 E.0502
G1 X116.567 Y114.599 E.03503
G1 X115.245 Y115.323 E.04725
G1 X114.046 Y115.662 E.03909
G1 X112.957 Y115.755 E.03426
G1 X106.552 Y115.737 E.20083
G1 X105.216 Y115.485 E.04263
G1 X103.856 Y114.879 E.04667
G1 X103.227 Y114.445 E.02397
G1 X102.594 Y113.861 E.02699
G1 X101.846 Y112.908 E.03798
G1 X101.48 Y112.26 E.02333
G1 X101.093 Y111.212 E.03505
G1 X99.672 Y105.907 E.1722
G1 X99.485 Y104.633 E.04036
G1 X99.558 Y103.479 E.03626
G1 X99.844 Y102.275 E.0388
G1 X100.359 Y101.185 E.03779
G1 X101.023 Y100.315 E.03432
G1 E-7 F3600
;WIPE_START
G1 F7200
G1 X101.203 Y100.078 E-.14143
G1 X102.191 Y99.242 E-.61479
G1 X103.271 Y98.654 E-.58397
G1 X104.654 Y98.213 E-.68943
G1 X106.098 Y98.005 E-.69304
G1 X106.366 Y98.005 E-.12734
;WIPE_END
G1 E-.15 F3600
G1 X110.1 Y110.726 F9000
G1 E10 F2400
;TYPE:External perimeter
;WIDTH:0.635886
G1 F1200
G1 X109.896 Y110.727 E.01006
G1 X110.1 Y110.726 F9000
G1 F1200
G1 X110.31 Y110.747 E.01042
;WIDTH:0.587337
G1 X110.52 Y110.768 E.00957
;WIDTH:0.538787
G1 X111.237 Y111.038 E.03156
;WIDTH:0.570403
G1 X111.772 Y111.203 E.02457
G1 X112.859 Y111.481 E.04921
;WIDTH:0.556836
G1 X113.4 Y111.607 E.02375
G1 X113.883 Y111.669 E.02081
G1 X114.212 Y111.767 E.01465
G1 X113.962 Y111.897 E.01203
G1 X113.371 Y111.99 E.02555
G1 X112.8 Y111.989 E.02442
G1 X112.358 Y111.891 E.01935
;WIDTH:0.570403
G1 X111.602 Y111.702 E.03415
G1 X111.054 Y111.497 E.02569
;WIDTH:0.538787
G1 X110.376 Y111.043 E.03363
;WIDTH:0.587337
G1 X110.238 Y110.885 E.00951
;WIDTH:0.635886
G1 X110.139 Y110.772 E.0074
G1 X109.896 Y110.727 F9000
;WIDTH:0.634626
G1 F1200
G1 X109.82 Y110.83 E.00625
;WIDTH:0.592946
G1 X109.745 Y110.932 E.00581
;WIDTH:0.551266
G1 X109.669 Y111.034 E.00537
;WIDTH:0.509585
G1 X109.18 Y111.368 E.02296
;WIDTH:0.533016
G1 X108.956 Y111.478 E.01019
;WIDTH:0.558055
G1 X108.731 Y111.588 E.01071
;WIDTH:0.558938
G1 X108.17 Y111.755 E.02511
;WIDTH:0.568208
G1 X107.597 Y111.918 E.02605
G1 X107.038 Y112.009 E.02472
;WIDTH:0.540868
G1 X106.208 Y111.952 E.03444
G1 X105.771 Y111.764 E.0197
G1 X106.131 Y111.655 E.0156
G1 X106.989 Y111.513 E.03599
;WIDTH:0.568208
G1 X107.494 Y111.404 E.02258
G1 X108.038 Y111.256 E.02465
;WIDTH:0.558796
G1 X108.508 Y111.103 E.0212
;WIDTH:0.533386
G1 X108.979 Y110.95 E.02016
;WIDTH:0.509585
G1 X109.507 Y110.739 E.02207
;WIDTH:0.551266
G1 X109.636 Y110.735 E.00549
;WIDTH:0.592946
G1 X109.766 Y110.731 E.00594
;WIDTH:0.634626
G1 X109.836 Y110.729 E.00343
G1 E-7 F3600
;WIPE_START
G1 F7200
G1 X109.82 Y110.83 E-.04827
G1 X109.745 Y110.932 E-.06038
G1 X109.669 Y111.034 E-.06038
G1 X109.18 Y111.368 E-.28108
G1 X108.956 Y111.478 E-.11881
G1 X108.731 Y111.588 E-.11881
G1 X108.17 Y111.755 E-.27795
G1 X107.597 Y111.918 E-.28327
G1 X107.038 Y112.009 E-.26885
G1 X106.208 Y111.952 E-.39511
G1 X105.771 Y111.764 E-.226
G1 X106.131 Y111.655 E-.17896
G1 X106.989 Y111.513 E-.41283
G1 X107.234 Y111.46 E-.11928
;WIPE_END
G1 E-.15 F3600
G1 X104.661 Y110.16 F9000
G1 E10 F2400
;WIDTH:0.474771
G1 F1200
G1 X109.166 Y108.957 E.16745
;WIDTH:0.484129
G1 X109.674 Y108.855 E.019
G1 X110.107 Y108.828 E.0159
;WIDTH:0.476955
G1 X110.816 Y108.951 E.02597
;WIDTH:0.47516
G1 X115.127 Y110.103 E.16039
;WIDTH:0.474968
G1 X115.339 Y110.16 E.0079
G1 X115.202 Y110.571 E.01555
G1 X115.015 Y110.521 E.00694
;WIDTH:0.47516
G1 X110.655 Y109.358 E.16218
;WIDTH:0.476955
G1 X110.035 Y109.256 E.02269
;WIDTH:0.484129
G1 X109.239 Y109.383 E.02956
;WIDTH:0.474852
G1 X104.798 Y110.571 E.16511
G1 X104.68 Y110.217 E.01339
G1 X105.05 Y110.069 F9000
G1 E-7 F3600
;WIPE_START
G1 F7200
G1 X109.166 Y108.957 E-2.21347
G1 X109.674 Y108.855 E-.24603
G1 X110.107 Y108.828 E-.20589
G1 X110.489 Y108.894 E-.18462
;WIPE_END
G1 E-.15 F3600
G1 X109.95 Y107.157 F9000
G1 E10 F2400
;WIDTH:0.428988
G1 F1200
G1 X110.056 Y107.135 E.00348
;WIDTH:0.477313
G1 X110.162 Y107.113 E.00392
;WIDTH:0.525638
G1 X110.268 Y107.091 E.00435
;WIDTH:0.53583
G1 X110.369 Y106.889 E.00926
G1 X111.016 Y107.054 E.02734
;WIDTH:0.493061
G1 X111.552 Y107.189 E.0207
;WIDTH:0.475951
G1 X115.623 Y108.28 E.15176
;WIDTH:0.47541
G1 X115.832 Y108.336 E.00778
G1 X115.72 Y108.753 E.01555
G1 X115.511 Y108.697 E.00777
;WIDTH:0.475951
G1 X111.44 Y107.607 E.15176
;WIDTH:0.476387
G1 X111.427 Y107.604 E.00049
;WIDTH:0.506109
G1 X110.961 Y107.517 E.01824
;WIDTH:0.53583
G1 X110.495 Y107.43 E.01941
G1 X110.383 Y107.446 E.00466
;WIDTH:0.497059
G1 X110.27 Y107.462 E.00429
;WIDTH:0.458288
G1 X110.158 Y107.478 E.00393
;WIDTH:0.419517
G1 X110.045 Y107.494 E.00356
;WIDTH:0.428759
G1 X109.87 Y107.474 E.00565
;WIDTH:0.476771
G1 X109.695 Y107.454 E.00636
;WIDTH:0.524783
G1 X109.52 Y107.433 E.00706
G1 X109.254 Y107.455 E.01069
;WIDTH:0.500648
G1 X108.758 Y107.556 E.01928
;WIDTH:0.477285
G1 X104.489 Y108.697 E.1596
;WIDTH:0.475521
G1 X104.28 Y108.753 E.00777
G1 X104.168 Y108.336 E.01555
G1 X104.377 Y108.28 E.00778
;WIDTH:0.477285
G1 X108.646 Y107.137 E.1596
;WIDTH:0.491812
G1 X108.989 Y107.052 E.0132
;WIDTH:0.534928
G1 X109.631 Y106.888 E.02713
G1 X109.721 Y107.078 E.0086
G1 X109.778 Y107.098 E.00248
;WIDTH:0.496362
G1 X109.835 Y107.117 E.00228
;WIDTH:0.457796
G1 X109.893 Y107.137 E.00209
;WIDTH:0.41923
G1 X109.893 Y107.137 E.00002
G1 X110.787 Y105.475 F9000
;WIDTH:0.475362
G1 F1200
G1 X110.899 Y105.057 E.01555
G1 X116.321 Y106.51 E.20185
G1 X116.209 Y106.928 E.01555
G1 X110.845 Y105.49 E.1997
G1 X111.062 Y105.185 F9000
G1 X109.101 Y105.057
;WIDTH:0.475361
G1 F1200
G1 X109.213 Y105.475 E.01555
G1 X103.791 Y106.928 E.20185
G1 X103.679 Y106.51 E.01555
G1 X109.043 Y105.073 E.1997
G1 X109.008 Y105.446 F9000
G1 X108.723 Y103.65
;WIDTH:0.474781
G1 F1200
G1 X103.518 Y105.044 E.19349
;WIDTH:0.474661
G1 X103.306 Y105.101 E.0079
G1 X103.218 Y104.678 E.01552
G1 X103.407 Y104.627 E.00702
;WIDTH:0.474781
G1 X108.581 Y103.241 E.19235
G1 X108.703 Y103.593 E.0134
G1 X108.334 Y103.743 F9000
G1 E-7 F3600
;WIPE_START
G1 F7200
G1 X103.518 Y105.044 E-2.55748
G1 X103.306 Y105.101 E-.10451
G1 X103.225 Y104.714 E-.18801
;WIPE_END
G1 E-.15 F3600
G1 X111.28 Y103.651 F9000
G1 E10 F2400
;WIDTH:0.47477
G1 F1200
G1 X111.415 Y103.24 E.01553
G1 X116.782 Y104.678 E.19951
G1 X116.694 Y105.101 E.01553
G1 X111.338 Y103.666 E.19911
G1 X111.566 Y103.371 F9000
G1 X112.21 Y102.06
;WIDTH:0.419999
G1 F1200
G1 X112.685 Y101.807 E.0169
G1 X113.234 Y101.716 E.01744
G1 X113.776 Y101.691 E.017
G1 X114.494 Y101.81 E.02283
G1 X115.178 Y102.009 E.02233
;WIDTH:0.468007
G1 X115.331 Y102.109 E.00646
;WIDTH:0.516015
G1 X115.484 Y102.209 E.00719
;WIDTH:0.564023
G1 X116.3 Y102.799 E.04366
G1 X116.537 Y103.147 E.01823
G1 X116.169 Y103.06 E.01638
G1 X115.408 Y102.775 E.03524
G1 X115.259 Y102.754 E.0065
;WIDTH:0.516015
G1 X115.111 Y102.733 E.0059
;WIDTH:0.468007
G1 X114.962 Y102.712 E.0053
;WIDTH:0.419999
G1 X113.405 Y102.306 E.05045
G1 X112.685 Y102.184 E.0229
G1 X112.268 Y102.075 E.01352
G1 X112.596 Y101.958 F9000
G1 X113.741 Y102.034
;TYPE:Perimeter
;WIDTH:0.383899
G1 F1200
G1 X114.069 Y102.102 E.00949
;WIDTH:0.412488
G1 X114.397 Y102.17 E.01029
G1 X115.059 Y102.357 E.02116
G1 E-7 F3600
;WIPE_START
G1 F7200
G1 X114.397 Y102.17 E-.32711
G1 X114.069 Y102.102 E-.15901
G1 X113.741 Y102.034 E-.15901
;WIPE_END
G1 E-2.35487 F3600
G1 X107.789 Y102.059 F9000
G1 E10 F2400
;TYPE:External perimeter
;WIDTH:0.419999
G1 F1200
G1 X107.302 Y102.19 E.0158
G1 X106.626 Y102.296 E.02146
G1 X105.567 Y102.567 E.03427
;WIDTH:0.455785
G1 X104.966 Y102.713 E.02122
;WIDTH:0.491403
G1 X104.84 Y102.733 E.00476
;WIDTH:0.527021
G1 X104.714 Y102.754 E.00514
;WIDTH:0.562639
G1 X104.588 Y102.774 E.00552
G1 X103.827 Y103.061 E.03516
G1 X103.459 Y103.148 E.01634
G1 X103.652 Y102.84 E.01572
G1 X104.033 Y102.534 E.02112
;WIDTH:0.5676
G1 X104.459 Y102.262 E.02207
G1 X104.586 Y102.176 E.00668
;WIDTH:0.5184
G1 X104.713 Y102.09 E.00605
;WIDTH:0.4692
G1 X104.84 Y102.005 E.00543
;WIDTH:0.419999
G1 X105.387 Y101.83 E.01802
G1 X105.939 Y101.716 E.01766
G1 X106.622 Y101.709 E.02141
G1 X107.338 Y101.808 E.02268
G1 X107.736 Y102.03 E.01429
G1 X107.39 Y102.09 F9000
G1 X105.963 Y102.084
;TYPE:Perimeter
;WIDTH:0.423828
G1 F1200
G1 X105.467 Y102.201 E.01616
G1 X104.952 Y102.354 E.01701
M106 S255
;LAYER_CHANGE
;Z:0.4
;HEIGHT:0.2
;BEFORE_LAYER_CHANGE
G92 E0
;0.4


G1 E-7 F3600
;WIPE_START
G1 F7200
G1 X105.467 Y102.201 E-.2551
G1 X105.963 Y102.084 E-.24232
;WIPE_END
G1 E-2.50258 F3600
G1 Z.4 F9000
;AFTER_LAYER_CHANGE
;0.4
M104 S205 ; set temperature
G1 X105.293 Y97.75
G1 E10 F2400
;TYPE:Skirt/Brim
;WIDTH:0.42
G1 F1485
G1 X106.083 Y97.628 E.02504
G1 X113.905 Y97.628 E.24526
G1 X114.925 Y97.738 E.03217
G1 X116.222 Y98.067 E.04196
G1 X117.239 Y98.473 E.03435
G1 X118.145 Y99.017 E.03313
G1 X118.962 Y99.708 E.03354
G1 X119.611 Y100.461 E.03118
G1 X120.167 Y101.357 E.03305
G1 X120.585 Y102.367 E.03428
G1 X120.795 Y103.293 E.02975
G1 X120.886 Y104.126 E.02628
G1 X120.788 Y105.566 E.04527
G1 X119.23 Y111.451 E.19085
G1 X118.691 Y112.755 E.04427
G1 X117.69 Y114.109 E.05278
G1 X116.782 Y114.909 E.03795
G1 X115.378 Y115.676 E.05016
G1 X114.117 Y116.032 E.04108
G1 X112.957 Y116.132 E.03651
G1 X106.52 Y116.113 E.20181
G1 X105.111 Y115.847 E.04498
G1 X103.668 Y115.205 E.04951
G1 X102.989 Y114.737 E.02586
G1 X102.31 Y114.109 E.029
G1 X101.538 Y113.125 E.03924
G1 X101.142 Y112.427 E.02515
G1 X100.729 Y111.309 E.03736
G1 X99.326 Y106.076 E.16986
G1 X99.112 Y104.733 E.04266
G1 X99.174 Y103.503 E.03859
G1 X99.451 Y102.258 E.04001
G1 X99.967 Y101.11 E.03945
G1 X100.781 Y99.98 E.04368
G1 X101.842 Y99.027 E.0447
G1 X102.985 Y98.367 E.04139
G1 X104.389 Y97.89 E.0465
G1 X105.234 Y97.759 E.02681
G1 X105.286 Y98.122 F9000
G1 F1485
G1 X106.098 Y98.005 E.02571
G1 X113.89 Y98.004 E.24432
G1 X114.854 Y98.108 E.03039
G1 X116.109 Y98.427 E.04061
G1 X117.075 Y98.813 E.03261
G1 X117.923 Y99.322 E.03101
G1 X118.693 Y99.973 E.03162
G1 X119.393 Y100.803 E.03404
G1 X119.9 Y101.665 E.03134
G1 X120.256 Y102.578 E.03072
G1 X120.51 Y104.156 E.05012
G1 X120.413 Y105.523 E.04298
G1 X118.87 Y111.339 E.18864
G1 X118.36 Y112.575 E.04194
G1 X117.406 Y113.861 E.0502
G1 X116.567 Y114.599 E.03503
G1 X115.245 Y115.323 E.04725
G1 X114.046 Y115.662 E.03909
G1 X112.957 Y115.755 E.03426
G1 X106.552 Y115.737 E.20083
G1 X105.216 Y115.485 E.04263
G1 X103.856 Y114.879 E.04667
G1 X103.227 Y114.445 E.02397
G1 X102.594 Y113.861 E.02699
G1 X101.846 Y112.908 E.03798
G1 X101.48 Y112.26 E.02333
G1 X101.093 Y111.212 E.03505
G1 X99.672 Y105.907 E.1722
G1 X99.485 Y104.633 E.04036
G1 X99.558 Y103.479 E.03626
G1 X99.844 Y102.275 E.0388
G1 X100.359 Y101.185 E.03779
G1 X101.203 Y100.078 E.04366
G1 X102.191 Y99.242 E.04058
G1 X103.271 Y98.654 E.03855
G1 X104.654 Y98.213 E.04551
G1 X105.227 Y98.13 E.01816
G1 E-7 F3600
;WIPE_START
G1 F7200
G1 X106.098 Y98.005 E-.41797
G1 X111.218 Y98.005 E-2.43203
;WIPE_END
G1 E-.15 F3600
G1 X109.614 Y107.932 F9000
G1 E10 F2400
;TYPE:Perimeter
;WIDTH:0.439999
G1 F1485
G1 X109.668 Y107.962 E.00205
G1 X110.125 Y108 E.01515
G1 X110.513 Y107.888 E.01332
G1 X110.808 Y107.645 E.01259
G1 X110.993 Y107.283 E.01344
G1 X111.932 Y103.78 E.11974
G1 X112.141 Y103.281 E.01785
G1 X112.402 Y102.953 E.01386
G1 X112.905 Y102.577 E.02074
G1 X113.37 Y102.422 E.01619
G1 X113.922 Y102.408 E.01823
G1 X114.444 Y102.516 E.01759
G1 X114.982 Y102.69 E.01869
G1 X115.446 Y102.951 E.01758
G1 X115.742 Y103.253 E.01396
G1 X115.978 Y103.646 E.01513
G1 X116.086 Y103.975 E.01144
G1 X116.131 Y104.391 E.01382
G1 X116.084 Y104.805 E.01375
G1 X114.683 Y110.008 E.17792
G1 X114.529 Y110.435 E.01499
G1 X114.216 Y110.858 E.01738
G1 X113.794 Y111.165 E.01722
G1 X113.245 Y111.339 E.01903
G1 X112.656 Y111.336 E.01942
G1 X111.939 Y111.151 E.02446
G1 X111.435 Y110.968 E.01771
G1 X111.06 Y110.705 E.01511
G1 X110.726 Y110.331 E.01656
G1 X110.482 Y110.133 E.01037
G1 X110.098 Y110.01 E.01332
G1 X109.697 Y110.053 E.01332
G1 X109.335 Y110.268 E.01389
G1 X108.992 Y110.656 E.01711
G1 X108.482 Y111.007 E.02044
G1 X107.334 Y111.335 E.03942
G1 X106.748 Y111.341 E.01934
G1 X106.539 Y111.282 E.00717
G1 X106.162 Y111.128 E.01345
G1 X105.746 Y110.815 E.01719
G1 X105.511 Y110.508 E.01276
G1 X105.312 Y110.025 E.01723
G1 X103.969 Y105.015 E.17127
G1 X103.87 Y104.445 E.01909
G1 X103.94 Y103.91 E.01784
G1 X104.128 Y103.44 E.01672
G1 X104.557 Y102.945 E.02161
G1 X105.036 Y102.672 E.01821
G1 X105.551 Y102.507 E.01785
G1 X106.156 Y102.396 E.02032
G1 X106.532 Y102.409 E.01242
G1 X106.997 Y102.538 E.01591
G1 X107.409 Y102.778 E.01577
G1 X107.686 Y103.044 E.01267
G1 X107.815 Y103.247 E.00796
G1 X108.038 Y103.679 E.01603
G1 X109.007 Y107.283 E.12322
G1 X109.064 Y107.441 E.00555
G1 X109.301 Y107.758 E.01307
G1 X109.561 Y107.903 E.00985
G1 X109.755 Y107.567 F9000
G1 F1485
G1 X110.054 Y107.606 E.00997
G1 X110.326 Y107.538 E.00924
G1 X110.473 Y107.425 E.00614
G1 X110.61 Y107.18 E.00926
G1 X111.479 Y103.935 E.11093
G1 X111.659 Y103.354 E.02007
G1 X111.899 Y102.935 E.01594
G1 X112.268 Y102.524 E.01826
G1 X112.712 Y102.228 E.0176
G1 X113.105 Y102.085 E.0138
G1 X113.528 Y102.01 E.01419
G1 X114.129 Y102.029 E.01986
G1 X114.828 Y102.202 E.02377
G1 X115.329 Y102.4 E.01777
G1 X115.7 Y102.642 E.01464
G1 X116.059 Y103.009 E.01693
G1 X116.341 Y103.48 E.01814
G1 X116.476 Y103.891 E.01429
G1 X116.53 Y104.392 E.01664
G1 X116.475 Y104.879 E.01617
G1 X115.181 Y109.685 E.16432
G1 X114.941 Y110.486 E.02761
G1 X114.688 Y110.924 E.0167
G1 X114.394 Y111.23 E.01402
G1 X113.97 Y111.523 E.017
G1 X113.649 Y111.643 E.01133
G1 X113.126 Y111.759 E.01767
