; generated by PrusaSlicer 2.5.0+win64 on 2022-11-29 at 23:54:08 UTC


;
;

;
;
; TODO: check the size of the extruder and the y-bar clearance. Optimize & test supports.

; external perimeters extrusion width = 0.42mm
; perimeters extrusion width = 0.44mm
; infill extrusion width = 0.44mm
; solid infill extrusion width = 0.44mm
; top infill extrusion width = 0.44mm
; first layer extrusion width = 0.56mm

M107
M190 S55 ; set bed temperature and wait for it to be reached
M104 S215 ; set temperature
;TYPE:Custom
; M190 S0
; M109 S0 ; uncomment to remove set&wait temp gcode added automatically after this start gcode
print_start EXTRUDER=215 BED=55
PURGE_BLOB
M109 S215 ; set temperature and wait for it to be reached
G21 ; set units to millimeters
G90 ; use absolute coordinates
M83 ; use relative distances for extrusion
M107
;LAYER_CHANGE
;Z:0.3
;HEIGHT:0.3
;BEFORE_LAYER_CHANGE
;0.3
G92 E0

G1 Z.3 F18000
;AFTER_LAYER_CHANGE
;0.3
G1 E-.75 F3000
G1 Z.7 F18000
G1 X114.258 Y114.113
G1 Z.3
G1 E.75 F1800
M204 S1000
;TYPE:Skirt/Brim
;WIDTH:0.56
G1 F1572
G1 X115.521 Y112.868 E.10966
G1 X116.947 Y111.955 E.10466
G1 X118.496 Y111.351 E.10278
G1 X119.746 Y111.048 E.07947
G1 X120.93 Y110.911 E.07371
G1 X128.973 Y110.908 E.49715
G1 X130.254 Y111.048 E.07967
G1 X131.75 Y111.428 E.09545
G1 X132.872 Y111.867 E.07444
G1 X133.949 Y112.48 E.07665
G1 X135.024 Y113.34 E.08506
G1 X135.92 Y114.338 E.08292
G1 X136.618 Y115.42 E.07957
G1 X137.127 Y116.557 E.07703
G1 X137.318 Y117.158 E.03895
G1 X137.572 Y118.665 E.09451
G1 X137.616 Y119.582 E.05676
G1 X137.52 Y120.645 E.06596
G1 X135.935 Y126.752 E.39003
G1 X135.334 Y128.326 E.10412
G1 X134.698 Y129.351 E.07459
G1 X134.215 Y129.972 E.0486
G1 X133.1 Y131.069 E.09674
G1 X132.184 Y131.7 E.06871
G1 X131.477 Y132.073 E.04946
G1 X130.76 Y132.37 E.04795
G1 X129.718 Y132.667 E.06697
G1 X128.109 Y132.85 E.10009
G1 X121.414 Y132.83 E.41389
G1 X119.911 Y132.578 E.09423
G1 X118.396 Y132.013 E.09991
G1 X116.913 Y131.079 E.10834
G1 X115.816 Y130.009 E.09475
G1 X114.825 Y128.628 E.10508
G1 X114.124 Y126.957 E.11202
G1 X112.634 Y121.407 E.35521
G1 X112.403 Y119.973 E.08979
G1 X112.428 Y118.665 E.08085
G1 X112.528 Y117.91 E.04706
G1 X112.782 Y116.824 E.06898
G1 X113.302 Y115.57 E.08392
G1 X114.225 Y114.163 E.10399
M204 S3000
G1 X114.64 Y114.444 F18000
M204 S1000
G1 F1572
G1 X114.695 Y114.363 E.00604
G1 X115.877 Y113.218 E.10168
G1 X117.28 Y112.344 E.10223
G1 X118.763 Y111.79 E.09785
G1 X119.959 Y111.513 E.07587
G1 X121.027 Y111.404 E.06639
G1 X128.953 Y111.403 E.48997
G1 X130.255 Y111.553 E.08102
G1 X131.709 Y111.936 E.09294
G1 X132.769 Y112.368 E.0707
G1 X133.863 Y113.023 E.07886
G1 X134.836 Y113.849 E.07887
G1 X135.59 Y114.725 E.07149
G1 X136.251 Y115.785 E.07718
G1 X136.711 Y116.869 E.07282
G1 X137.081 Y118.73 E.11729
G1 X137.121 Y119.571 E.05202
G1 X137.03 Y120.573 E.0622
G1 X135.403 Y126.807 E.39826
G1 X134.804 Y128.273 E.09795
G1 X133.824 Y129.667 E.10531
G1 X133.252 Y130.287 E.05213
G1 X132.481 Y130.915 E.06145
G1 X131.749 Y131.378 E.05355
G1 X130.818 Y131.819 E.0637
G1 X129.35 Y132.235 E.09429
G1 X127.958 Y132.357 E.0864
G1 X121.452 Y132.336 E.40215
G1 X119.754 Y132.019 E.10682
G1 X118.275 Y131.392 E.09927
G1 X116.838 Y130.369 E.10907
G1 X115.724 Y129.091 E.10477
G1 X115.043 Y127.969 E.08113
G1 X114.544 Y126.624 E.08872
G1 X113.116 Y121.289 E.34137
G1 X112.898 Y119.941 E.08444
G1 X112.919 Y118.73 E.07486
G1 X113.164 Y117.272 E.0914
G1 X113.8 Y115.688 E.10548
G1 X114.607 Y114.493 E.08913
M204 S3000
G1 X115.015 Y114.769 F18000
M204 S1000
G1 F1572
G1 X115.077 Y114.678 E.00683
G1 X116.183 Y113.608 E.09516
G1 X117.592 Y112.743 E.10217
G1 X119.092 Y112.213 E.09832
G1 X120.127 Y111.988 E.0655
G1 X121.047 Y111.899 E.05714
G1 X128.934 Y111.898 E.48754
G1 X130.162 Y112.04 E.0764
G1 X131.549 Y112.405 E.0887
G1 X132.553 Y112.814 E.06696
G1 X133.571 Y113.424 E.07338
G1 X134.482 Y114.197 E.07387
G1 X135.194 Y115.023 E.0674
G1 X135.812 Y116.016 E.0723
G1 X136.241 Y117.025 E.06778
G1 X136.589 Y118.795 E.11152
G1 X136.624 Y119.619 E.05101
G1 X136.522 Y120.61 E.06155
G1 X134.93 Y126.66 E.38675
G1 X134.343 Y128.083 E.09513
G1 X133.433 Y129.363 E.09708
G1 X132.914 Y129.924 E.04728
G1 X132.199 Y130.508 E.05704
G1 X131.502 Y130.948 E.05096
G1 X130.643 Y131.355 E.05878
G1 X129.256 Y131.748 E.08908
G1 X127.958 Y131.861 E.08056
G1 X121.491 Y131.842 E.39977
G1 X119.893 Y131.543 E.10047
G1 X118.521 Y130.961 E.09215
G1 X117.17 Y130.001 E.10245
G1 X116.113 Y128.784 E.09964
G1 X115.488 Y127.751 E.07469
G1 X115.023 Y126.496 E.08274
G1 X113.597 Y121.172 E.3407
G1 X113.392 Y119.909 E.07908
G1 X113.411 Y118.795 E.06886
G1 X113.634 Y117.433 E.08529
G1 X114.239 Y115.919 E.10083
G1 X114.982 Y114.819 E.08202
M204 S3000
G1 X115.395 Y115.117 F18000
M204 S1000
G1 F1572
G1 X115.608 Y114.821 E.02253
G1 X116.703 Y113.837 E.091
G1 X117.922 Y113.138 E.08686
G1 X119.338 Y112.66 E.09237
G1 X121.067 Y112.394 E.10815
G1 X128.915 Y112.393 E.48511
G1 X129.973 Y112.508 E.06582
G1 X131.303 Y112.846 E.08482
G1 X132.337 Y113.26 E.06883
G1 X133.279 Y113.825 E.0679
G1 X134.129 Y114.544 E.06886
G1 X134.798 Y115.32 E.06332
G1 X135.374 Y116.247 E.06742
G1 X135.806 Y117.29 E.06985
G1 X136.098 Y118.86 E.09868
G1 X136.127 Y119.643 E.04843
G1 X136.012 Y120.644 E.06233
G1 X134.456 Y126.514 E.37535
G1 X133.86 Y127.933 E.09516
G1 X133.032 Y129.071 E.087
G1 X132.576 Y129.562 E.04143
G1 X131.916 Y130.1 E.05263
G1 X130.544 Y130.862 E.097
G1 X129.162 Y131.261 E.08893
G1 X127.958 Y131.366 E.07471
G1 X121.529 Y131.348 E.39739
G1 X120.033 Y131.067 E.09412
G1 X118.767 Y130.531 E.08502
G1 X117.476 Y129.61 E.09798
G1 X116.502 Y128.477 E.09236
G1 X115.932 Y127.532 E.06825
G1 X115.501 Y126.367 E.07675
G1 X114.079 Y121.054 E.34002
G1 X113.887 Y119.877 E.07372
G1 X113.902 Y118.86 E.06287
G1 X114.111 Y117.565 E.08107
G1 X114.387 Y116.764 E.05237
G1 X114.762 Y115.996 E.05285
G1 X115.36 Y115.166 E.06324
M204 S3000
G1 X115.76 Y115.47 F18000
M204 S1000
G1 F1572
G1 X116.114 Y115.005 E.03612
G1 X117.122 Y114.149 E.08176
G1 X118.229 Y113.545 E.07794
G1 X119.624 Y113.1 E.09052
G1 X121.204 Y112.886 E.09858
G1 X128.895 Y112.889 E.47543
G1 X129.88 Y112.995 E.06121
G1 X131.154 Y113.319 E.08128
G1 X132.137 Y113.714 E.0655
G1 X132.987 Y114.225 E.06131
G1 X133.776 Y114.892 E.06386
G1 X134.464 Y115.704 E.06582
G1 X135.003 Y116.614 E.06533
G1 X135.368 Y117.547 E.06195
G1 X135.636 Y119.423 E.11712
G1 X135.526 Y120.548 E.0699
G1 X133.983 Y126.367 E.37216
G1 X133.395 Y127.748 E.09274
G1 X132.277 Y129.163 E.11147
G1 X131.421 Y129.84 E.06747
G1 X130.258 Y130.441 E.08098
G1 X128.815 Y130.814 E.09207
G1 X127.958 Y130.87 E.05312
G1 X121.537 Y130.852 E.39691
G1 X120.173 Y130.592 E.08587
G1 X118.797 Y129.977 E.09311
G1 X117.956 Y129.371 E.06407
G1 X117.373 Y128.781 E.05133
G1 X116.891 Y128.171 E.04806
G1 X116.377 Y127.313 E.06182
G1 X115.98 Y126.239 E.07077
G1 X114.56 Y120.936 E.33935
G1 X114.366 Y119.537 E.08736
G1 X114.493 Y118.17 E.08484
G1 X114.769 Y117.145 E.06559
G1 X115.259 Y116.128 E.06981
G1 X115.723 Y115.518 E.04742
M204 S3000
G1 E-.75 F3000
G1 Z.7 F18000
G1 X124.925 Y125.692
G1 Z.3
G1 E.75 F1800
M204 S1000
;TYPE:External perimeter
;WIDTH:0.665409
G1 F1572
G1 X125.109 Y125.7 E.01384
M204 S3000
G1 X124.925 Y125.692 F18000
M204 S1000
;WIDTH:0.659214
G1 F1572
G1 X124.787 Y125.794 E.01274
;WIDTH:0.630056
G1 X124.427 Y126.211 E.03883
;WIDTH:0.598609
G1 X123.93 Y126.492 E.03806
;WIDTH:0.599393
G1 X123.178 Y126.748 E.053
G1 X122.171 Y126.983 E.06897
;WIDTH:0.596407
G1 X121.646 Y127.034 E.03505
;WIDTH:0.568938
G1 X121.246 Y126.965 E.02551
G1 X120.763 Y126.738 E.03359
G1 X121.584 Y126.534 E.05322
;WIDTH:0.606248
G1 X122.484 Y126.369 E.06188
G1 X123.207 Y126.178 E.05052
;WIDTH:0.604861
G1 X123.751 Y125.988 E.03885
;WIDTH:0.598609
G1 X124.412 Y125.763 E.04654
;WIDTH:0.628912
G1 X124.668 Y125.728 E.01822
;WIDTH:0.659214
G1 X124.865 Y125.701 E.01474
M204 S3000
G1 X125.109 Y125.7 F18000
M204 S1000
;WIDTH:0.665409
G1 F1572
G1 X125.348 Y125.727 E.01802
;WIDTH:0.623632
G1 X125.587 Y125.754 E.01677
;WIDTH:0.581856
G1 X126.051 Y125.92 E.03182
;WIDTH:0.608127
G1 X126.792 Y126.172 E.05305
G1 X127.93 Y126.46 E.0796
;WIDTH:0.596086
G1 X128.432 Y126.516 E.03347
;WIDTH:0.570189
G1 X129.247 Y126.729 E.0532
G1 X129.115 Y126.813 E.00991
G1 X128.519 Y127.018 E.03973
;WIDTH:0.594904
G1 X128 Y127.003 E.03433
;WIDTH:0.608495
G1 X127.573 Y126.936 E.02934
G1 X126.356 Y126.592 E.08583
;WIDTH:0.590631
G1 X125.869 Y126.404 E.03429
;WIDTH:0.581856
G1 X125.546 Y126.204 E.02448
;WIDTH:0.623632
G1 X125.328 Y125.952 E.02326
;WIDTH:0.665409
G1 X125.149 Y125.746 E.0205
M204 S3000
G1 E-.75 F3000
G1 Z.7 F18000
G1 X130.156 Y125.576
G1 Z.3
G1 E.75 F1800
M204 S1000
;WIDTH:0.560003
G1 F1572
G1 X129.617 Y125.447 E.03425
;WIDTH:0.56178
G1 X125.957 Y124.468 E.23507
;WIDTH:0.564568
G1 X125.497 Y124.361 E.02945
G1 X124.959 Y124.29 E.03384
;WIDTH:0.559494
G1 X124.327 Y124.394 E.03958
;WIDTH:0.559908
G1 X120.396 Y125.443 E.25143
G1 X119.844 Y125.574 E.03508
;WIDTH:0.549435
G1 X119.693 Y125.131 E.02831
;WIDTH:0.559908
G1 X124.199 Y123.915 E.28844
;WIDTH:0.566256
G1 X124.668 Y123.824 E.0299
G1 X125.088 Y123.795 E.02634
;WIDTH:0.564568
G1 X125.596 Y123.871 E.03208
G1 X126.085 Y123.988 E.03135
;WIDTH:0.56178
G1 X129.745 Y124.968 E.23507
;WIDTH:0.559973
G1 X130.307 Y125.133 E.03619
;WIDTH:0.547598
G1 X130.242 Y125.361 E.01432
G1 X130.178 Y125.52 E.01029
M204 S3000
G1 E-.75 F3000
G1 Z.7 F18000
G1 X124.957 Y122.18
G1 Z.3
G1 E.75 F1800
M204 S1000
;WIDTH:0.456638
G1 F1572
G1 X125.046 Y122.162 E.00445
;WIDTH:0.505908
G1 X125.135 Y122.145 E.00501
;WIDTH:0.555178
G1 X125.224 Y122.127 E.00556
;WIDTH:0.604448
G1 X125.313 Y122.109 E.00612
G1 X125.378 Y121.874 E.01641
G1 X126.558 Y122.167 E.08187
;WIDTH:0.559887
G1 X130.308 Y123.161 E.23977
;WIDTH:0.558864
G1 X130.8 Y123.308 E.03171
;WIDTH:0.54875
G1 X130.74 Y123.533 E.01409
G1 X130.679 Y123.759 E.01413
;WIDTH:0.559887
G1 X126.431 Y122.641 E.27147
;WIDTH:0.555576
G1 X126.419 Y122.638 E.0008
;WIDTH:0.604448
G1 X125.536 Y122.477 E.06046
G1 X125.396 Y122.488 E.00942
;WIDTH:0.555178
G1 X125.257 Y122.5 E.00856
;WIDTH:0.505908
G1 X125.118 Y122.511 E.0077
;WIDTH:0.456638
G1 X124.978 Y122.522 E.00684
;WIDTH:0.447886
G1 X124.876 Y122.515 E.00491
;WIDTH:0.488404
G1 X124.773 Y122.507 E.00543
;WIDTH:0.528922
G1 X124.671 Y122.5 E.00595
;WIDTH:0.56944
G1 X124.569 Y122.492 E.00647
;WIDTH:0.609959
G1 X124.466 Y122.485 E.00698
G1 X124.282 Y122.513 E.0127
;WIDTH:0.598871
G1 X123.563 Y122.644 E.04873
;WIDTH:0.559995
G1 X119.891 Y123.622 E.23488
;WIDTH:0.559875
G1 X119.32 Y123.76 E.03629
;WIDTH:0.547753
G1 X119.199 Y123.309 E.02816
;WIDTH:0.559995
G1 X119.778 Y123.139 E.0373
G1 X123.436 Y122.168 E.23394
;WIDTH:0.556748
G1 X123.46 Y122.162 E.00153
;WIDTH:0.572515
G1 X123.956 Y122.038 E.03239
;WIDTH:0.609959
G1 X124.619 Y121.875 E.04649
G1 X124.685 Y122.111 E.01669
G1 X124.739 Y122.125 E.00382
;WIDTH:0.56944
G1 X124.794 Y122.139 E.00353
;WIDTH:0.528922
G1 X124.848 Y122.153 E.00325
;WIDTH:0.488404
G1 X124.899 Y122.166 E.00276
M204 S3000
G1 X125.749 Y120.531 F18000
M204 S1000
;WIDTH:0.626696
G1 F1572
G1 X125.895 Y119.988 E.03944
G1 X131.359 Y121.452 E.39677
G1 X131.214 Y121.995 E.03944
G1 X125.807 Y120.547 E.39256
M204 S3000
G1 X126.023 Y120.239 F18000
G1 X124.251 Y120.531
M204 S1000
;WIDTH:0.626692
G1 F1572
G1 X118.786 Y121.995 E.39677
G1 X118.641 Y121.452 E.03944
G1 X124.105 Y119.988 E.39677
G1 X124.235 Y120.473 E.03523
M204 S3000
G1 X123.861 Y120.622 F18000
G1 X126.243 Y118.707
M204 S1000
;WIDTH:0.626099
G1 F1572
G1 X126.426 Y118.174 E.03945
G1 X131.569 Y119.553 E.37302
;WIDTH:0.625834
G1 X131.806 Y119.617 E.01722
G1 X131.79 Y119.793 E.01243
G1 X131.699 Y120.169 E.02708
G1 X131.423 Y120.095 E.01996
;WIDTH:0.626099
G1 X126.301 Y118.723 E.37152
M204 S3000
G1 X123.757 Y118.707 F18000
M204 S1000
;WIDTH:0.626093
G1 F1572
G1 X118.577 Y120.095 E.37572
;WIDTH:0.625832
G1 X118.302 Y120.169 E.01997
G1 X118.194 Y119.617 E.03941
G1 X118.432 Y119.553 E.01725
;WIDTH:0.626093
G1 X123.575 Y118.174 E.37305
G1 X123.659 Y118.362 E.01443
G1 X123.741 Y118.649 E.02091
M204 S3000
G1 X122.668 Y117.076 F18000
M204 S1000
;WIDTH:0.56
G1 F1572
G1 X118.421 Y118.214 E.27183
G1 X118.614 Y117.894 E.02311
G1 X118.9 Y117.56 E.02717
G1 X119.295 Y117.242 E.03135
G1 X119.729 Y117.011 E.03036
G1 X120.367 Y116.806 E.04145
G1 X120.875 Y116.698 E.03212
G1 X121.347 Y116.663 E.02922
G1 X121.848 Y116.727 E.03124
G1 X122.289 Y116.867 E.02858
G1 X122.616 Y117.047 E.02309
M204 S3000
G1 X122.269 Y117.092 F18000
G1 X119.887 Y117.394
M204 S1000
;TYPE:Perimeter
;WIDTH:0.424187
G1 F1572
G1 X120.477 Y117.22 E.0276
G1 X120.962 Y117.103 E.02237
M204 S3000
G1 E-.75 F3000
G1 Z.7 F18000
G1 X127.337 Y117.063
G1 Z.3
G1 E.75 F1800
M204 S1000
;TYPE:External perimeter
;WIDTH:0.56
G1 F1572
G1 X127.787 Y116.837 E.03115
G1 X128.234 Y116.707 E.02876
G1 X128.77 Y116.663 E.03323
G1 X129.282 Y116.725 E.03188
G1 X129.908 Y116.886 E.03996
G1 X130.352 Y117.048 E.02921
G1 X130.743 Y117.266 E.02768
G1 X131.07 Y117.531 E.02602
G1 X131.365 Y117.865 E.02756
G1 X131.555 Y118.207 E.02418
G1 X127.394 Y117.08 E.26646
M204 S3000
G1 X127.725 Y116.966 F18000
G1 X128.762 Y117.055
M204 S1000
;TYPE:Perimeter
;WIDTH:0.383661
G1 F1572
G1 X129.282 Y117.176 E.02126
;WIDTH:0.418593
G1 X129.802 Y117.298 E.02359
G1 X130.211 Y117.428 E.01897
M204 S3000
M106 S127.5
;LAYER_CHANGE
;Z:0.6
;HEIGHT:0.3
;BEFORE_LAYER_CHANGE
;0.6
G92 E0

G1 Z.6 F18000
;AFTER_LAYER_CHANGE
;0.6
M104 S205 ; set temperature
G1 E-.75 F3000
G1 Z1 F18000
G1 X125.332 Y122.93
G1 Z.6
G1 E.75 F1800
M204 S2000
;WIDTH:0.44
G1 F900
G1 X125.496 Y122.883 E.00798
G1 X125.731 Y122.703 E.01387
G1 X125.888 Y122.477 E.01289
G1 X125.95 Y122.311 E.00833
G1 X126.171 Y121.487 E.03994
;TYPE:Overhang perimeter
;WIDTH:0.379473
;HEIGHT:0.379473
M106 S255
G1 F3600
G1 X126.249 Y121.196 E.01414
M106 S127.5
;TYPE:Perimeter
;WIDTH:0.44
;HEIGHT:0.3
G1 F900
G1 X126.66 Y119.661 E.07446
;TYPE:Overhang perimeter
;WIDTH:0.379473
;HEIGHT:0.379473
M106 S255
G1 F3600
G1 X126.738 Y119.371 E.01414
M106 S127.5
;TYPE:Perimeter
;WIDTH:0.44
;HEIGHT:0.3
G1 F900
G1 X126.994 Y118.496 E.04271
G1 X127.263 Y118.048 E.02447
G1 X127.414 Y117.908 E.00965
;TYPE:Overhang perimeter
;WIDTH:0.379473
;HEIGHT:0.379473
M106 S255
G1 F3600
G1 X127.638 Y117.699 E.01441
G1 X127.696 Y117.67 E.00301
M106 S127.5
;TYPE:Perimeter
;WIDTH:0.44
;HEIGHT:0.3
G1 F900
G1 X128.111 Y117.467 E.02167
G1 X128.499 Y117.379 E.01861
G1 X129.005 Y117.377 E.02372
G1 X129.662 Y117.531 E.03162
G1 X130.16 Y117.723 E.02501
G1 X130.467 Y117.924 E.01717
G1 X130.748 Y118.205 E.01864
G1 X130.967 Y118.547 E.01901
;TYPE:Overhang perimeter
;WIDTH:0.379473
;HEIGHT:0.379473
M106 S255
G1 F3600
G1 X131.097 Y118.895 E.01749
M106 S127.5
;TYPE:Perimeter
;WIDTH:0.44
;HEIGHT:0.3
G1 F900
G1 X131.163 Y119.294 E.01894
G1 X131.134 Y119.724 E.02016
G1 X130.928 Y120.495 E.03739
;TYPE:Overhang perimeter
;WIDTH:0.379473
;HEIGHT:0.379473
M106 S255
G1 F3600
G1 X130.85 Y120.784 E.01411
M106 S127.5
;TYPE:Perimeter
;WIDTH:0.44
;HEIGHT:0.3
G1 F900
G1 X130.439 Y122.32 E.07449
;TYPE:Overhang perimeter
;WIDTH:0.379473
;HEIGHT:0.379473
M106 S255
G1 F3600
G1 X130.361 Y122.61 E.01411
M106 S127.5
;TYPE:Perimeter
;WIDTH:0.44
;HEIGHT:0.3
G1 F900
G1 X129.95 Y124.145 E.07444
;TYPE:Overhang perimeter
;WIDTH:0.379473
;HEIGHT:0.379473
M106 S255
G1 F3600
G1 X129.872 Y124.436 E.01417
M106 S127.5
;TYPE:Perimeter
;WIDTH:0.44
;HEIGHT:0.3
G1 F900
G1 X129.663 Y125.219 E.03796
G1 X129.448 Y125.628 E.02164
G1 X129.191 Y125.899 E.01749
;TYPE:Overhang perimeter
;WIDTH:0.379473
;HEIGHT:0.379473
M106 S255
G1 F3600
G1 X129.088 Y126.007 E.00705
G1 X128.896 Y126.132 E.01077
M106 S127.5
;TYPE:Perimeter
;WIDTH:0.44
;HEIGHT:0.3
G1 F900
G1 X128.792 Y126.2 E.00581
G1 X128.247 Y126.371 E.02676
G1 X127.646 Y126.369 E.02816
G1 X126.921 Y126.182 E.03509
G1 X126.424 Y126 E.02478
G1 X126.043 Y125.734 E.0218
G1 X125.688 Y125.332 E.02509
G1 X125.581 Y125.245 E.00647
;TYPE:Overhang perimeter
;WIDTH:0.379473
;HEIGHT:0.379473
M106 S255
G1 F3600
G1 X125.459 Y125.145 E.00743
G1 X125.094 Y125.027 E.01802
G1 X124.71 Y125.069 E.01818
G1 X124.409 Y125.248 E.01649
M106 S127.5
;TYPE:Perimeter
;WIDTH:0.44
