; generated by PrusaSlicer 2.5.0+linux-x64-GTK3 on 2022-09-29 at 18:23:52 UTC

; 

; external perimeters extrusion width = 0.42mm
; perimeters extrusion width = 0.44mm
; infill extrusion width = 0.44mm
; solid infill extrusion width = 0.44mm
; top infill extrusion width = 0.40mm
; first layer extrusion width = 0.42mm

M107
;TYPE:Custom
G90 ; use absolute coordinates
M83 ; extruder relative mode
M140 S60 ; set final bed temp
M104 S150 ; set temporary nozzle temp to prevent oozing during homing
G4 S10 ; allow partial nozzle warmup
G28 ; home all axis
G1 Z50 F240
G1 X2 Y10 F3000
M104 S210 ; set final nozzle temp
M190 S60 ; wait for bed temp to stabilize
M109 S210 ; wait for nozzle temp to stabilize
G1 Z0.28 F240
G92 E0
G1 Y140 E10 F1500 ; prime the nozzle
G1 X2.3 F5000
G92 E0
G1 Y10 E10 F1200 ; prime the nozzle
G92 E0
G21 ; set units to millimeters
G90 ; use absolute coordinates
M83 ; use relative distances for extrusion
; Filament gcode
M107
;LAYER_CHANGE
;Z:0.3
;HEIGHT:0.3
;BEFORE_LAYER_CHANGE
G92 E0
;0.3


G1 E-10 F3600
G1 Z.3 F9000
;AFTER_LAYER_CHANGE
;0.3
G1 X100.868 Y99.952
G1 E10 F2400
M204 S500
;TYPE:Skirt/Brim
;WIDTH:0.42
G1 F1200
G1 X102.002 Y98.97 E.06654
G1 X103.143 Y98.347 E.05765
G1 X104.572 Y97.891 E.06655
G1 X106.203 Y97.671 E.07298
G1 X113.904 Y97.673 E.34157
G1 X114.92 Y97.783 E.04536
G1 X116.219 Y98.113 E.05942
G1 X117.215 Y98.512 E.04759
G1 X118.114 Y99.051 E.0465
G1 X118.93 Y99.741 E.04738
G1 X119.641 Y100.58 E.04879
G1 X120.198 Y101.522 E.04853
G1 X120.574 Y102.486 E.0459
G1 X120.767 Y103.457 E.04393
G1 X120.852 Y104.425 E.0431
G1 X120.738 Y105.59 E.05191
G1 X119.189 Y111.431 E.26803
G1 X118.582 Y112.855 E.06866
G1 X117.424 Y114.32 E.08283
G1 X116.543 Y115.018 E.04986
G1 X115.333 Y115.643 E.06042
G1 X113.841 Y116.028 E.06834
G1 X112.958 Y116.086 E.03924
G1 X106.52 Y116.067 E.28554
G1 X105.112 Y115.799 E.06359
G1 X103.69 Y115.164 E.06909
G1 X102.819 Y114.537 E.04757
G1 X102.24 Y113.96 E.03628
G1 X101.685 Y113.256 E.03975
G1 X101.183 Y112.408 E.0437
G1 X100.772 Y111.295 E.05265
G1 X99.371 Y106.067 E.24008
G1 X99.158 Y104.731 E.06001
G1 X99.226 Y103.515 E.054
G1 X99.495 Y102.27 E.05649
G1 X100.048 Y101.062 E.05894
G1 X100.832 Y100 E.05855
G1 X101.123 Y100.222 F9000
G1 F1200
G1 X101.214 Y100.102 E.00665
G1 X102.2 Y99.265 E.05736
G1 X103.285 Y98.674 E.05481
G1 X104.658 Y98.236 E.06391
G1 X106.205 Y98.026 E.06928
G1 X113.89 Y98.028 E.34085
G1 X114.853 Y98.132 E.04298
G1 X116.112 Y98.452 E.0576
G1 X117.076 Y98.84 E.04607
G1 X117.905 Y99.338 E.04291
G1 X118.676 Y99.99 E.04481
G1 X119.35 Y100.785 E.04621
G1 X119.876 Y101.673 E.04581
G1 X120.234 Y102.587 E.04351
G1 X120.496 Y104.421 E.08217
G1 X120.389 Y105.521 E.04901
G1 X118.849 Y111.326 E.26638
G1 X118.274 Y112.678 E.06517
G1 X117.182 Y114.06 E.07814
G1 X116.342 Y114.724 E.04747
G1 X115.209 Y115.31 E.05661
G1 X113.799 Y115.675 E.06458
G1 X112.958 Y115.73 E.03739
G1 X106.548 Y115.712 E.28431
G1 X105.212 Y115.458 E.06032
G1 X103.868 Y114.856 E.06533
G1 X103.046 Y114.264 E.04493
G1 X102.516 Y113.735 E.03319
G1 X101.968 Y113.041 E.03925
G1 X101.503 Y112.251 E.04064
G1 X101.115 Y111.203 E.04957
G1 X99.696 Y105.903 E.24335
G1 X99.505 Y104.514 E.06217
G1 X99.637 Y103.149 E.06086
G1 X99.9 Y102.193 E.04394
G1 X100.38 Y101.199 E.04898
G1 X101.087 Y100.269 E.0518
G1 E-7 F3600
;WIPE_START
G1 F7200
G1 X101.214 Y100.102 E-.09971
G1 X102.2 Y99.265 E-.61426
G1 X103.285 Y98.674 E-.58694
G1 X104.658 Y98.236 E-.68447
G1 X106.205 Y98.026 E-.74188
G1 X106.464 Y98.026 E-.12274
;WIPE_END
G1 E-.15 F3600
G1 X109.948 Y110.837 F9000
G1 E10 F2400
;TYPE:External perimeter
;WIDTH:0.403426
G1 F1200
G1 X109.775 Y110.982 E.00957
;WIDTH:0.42
G1 X109.32 Y111.325 E.02527
G1 X108.78 Y111.642 E.02777
G1 X107.673 Y111.974 E.05127
G1 X107.253 Y112.052 E.01895
G1 X106.664 Y112.033 E.02614
G1 X106.052 Y111.971 E.02726
G1 X105.587 Y111.708 E.02369
G1 X106.088 Y111.584 E.02285
G1 X106.649 Y111.497 E.02521
G1 X108.485 Y111.019 E.08413
G1 X109.076 Y110.827 E.02759
G1 X109.691 Y110.591 E.0292
;WIDTH:0.391421
G1 X110.045 Y110.542 E.01458
;WIDTH:0.384748
G1 X110.23 Y110.592 E.00766
;WIDTH:0.412393
G1 X110.415 Y110.642 E.00832
;WIDTH:0.42
G1 X111.068 Y110.885 E.0309
G1 X112.477 Y111.279 E.06487
G1 X113.419 Y111.498 E.04292
G1 X113.913 Y111.562 E.02209
G1 X114.413 Y111.712 E.02315
G1 X113.976 Y111.962 E.02233
G1 X113.376 Y112.047 E.02688
G1 X112.724 Y112.049 E.02892
G1 X111.598 Y111.778 E.05138
G1 X111.066 Y111.562 E.02547
G1 X110.793 Y111.378 E.01458
G1 X110.131 Y110.877 E.03683
;WIDTH:0.397367
G1 X110.007 Y110.849 E.00529
G1 X108.643 Y111.327 F9000
;TYPE:Perimeter
;WIDTH:0.391181
G1 F1200
G1 X108.571 Y111.349 E.00308
;WIDTH:0.428367
G1 X107.57 Y111.629 E.0472
G1 X107.227 Y111.704 E.01591
G1 E-7 F3600
;WIPE_START
G1 F7200
G1 X107.57 Y111.629 E-.16646
G1 X108.571 Y111.349 E-.4938
G1 X108.643 Y111.327 E-.03584
;WIPE_END
G1 E-2.3039 F3600
G1 X112.765 Y111.702 F9000
G1 E10 F2400
;WIDTH:0.425769
G1 F1200
G1 X111.708 Y111.436 E.04913
G1 X111.449 Y111.347 E.01235
;WIDTH:0.394576
G1 X111.189 Y111.258 E.01128
G1 E-7 F3600
;WIPE_START
G1 F7200
G1 X111.449 Y111.347 E-.13012
G1 X111.708 Y111.436 E-.13012
G1 X112.765 Y111.702 E-.51774
;WIPE_END
G1 E-2.22203 F3600
G1 X115.167 Y110.577 F9000
G1 E10 F2400
;TYPE:External perimeter
;WIDTH:0.526407
G1 F1200
G1 X110.954 Y109.448 E.25134
;WIDTH:0.528524
G1 X110.029 Y109.271 E.05448
;WIDTH:0.535954
G1 X109.219 Y109.404 E.04828
;WIDTH:0.526469
G1 X104.833 Y110.577 E.26166
G1 X104.684 Y110.138 E.0267
G1 X109.1 Y108.958 E.26344
;WIDTH:0.531002
G1 X109.256 Y108.92 E.00931
G1 X110.03 Y108.808 E.04553
;WIDTH:0.527733
G1 X110.543 Y108.885 E.02996
;WIDTH:0.525012
G1 X111.073 Y109.003 E.0312
;WIDTH:0.526407
G1 X115.316 Y110.138 E.25311
G1 X115.186 Y110.52 E.02323
G1 X114.784 Y110.46 F9000
G1 E-7 F3600
;WIPE_START
G1 F7200
G1 X110.954 Y109.448 E-2.07382
G1 X110.029 Y109.271 E-.44701
G1 X109.346 Y109.383 E-.32917
;WIPE_END
G1 E-.15 F3600
G1 X110.063 Y107.162 F9000
G1 E10 F2400
;WIDTH:0.551586
G1 F1200
G1 X110.269 Y107.129 E.01265
;WIDTH:0.572526
G1 X110.397 Y106.881 E.01769
G1 X111.165 Y107.071 E.05019
;WIDTH:0.534448
G1 X115.585 Y108.254 E.26823
;WIDTH:0.527442
G1 X115.808 Y108.314 E.01337
G1 X115.689 Y108.76 E.0267
G1 X115.466 Y108.701 E.01334
;WIDTH:0.534448
G1 X111.044 Y107.525 E.26823
;WIDTH:0.536718
G1 X111.013 Y107.518 E.00188
;WIDTH:0.572526
G1 X110.504 Y107.437 E.03266
G1 X110.393 Y107.459 E.00716
;WIDTH:0.53162
G1 X110.283 Y107.481 E.00659
;WIDTH:0.490714
G1 X110.172 Y107.503 E.00601
;WIDTH:0.449808
G1 X110.061 Y107.526 E.00543
;WIDTH:0.452166
G1 X109.932 Y107.506 E.00631
;WIDTH:0.49543
G1 X109.803 Y107.486 E.00702
;WIDTH:0.538694
G1 X109.674 Y107.467 E.00772
;WIDTH:0.581958
G1 X109.545 Y107.447 E.00843
G1 X109.253 Y107.466 E.01886
;WIDTH:0.554443
G1 X108.685 Y107.587 E.03553
;WIDTH:0.533092
G1 X104.535 Y108.7 E.25118
;WIDTH:0.527378
G1 X104.311 Y108.76 E.01336
G1 X104.191 Y108.313 E.0267
G1 X104.414 Y108.253 E.01334
;WIDTH:0.533092
G1 X108.563 Y107.135 E.25118
;WIDTH:0.533724
G1 X108.595 Y107.126 E.00194
;WIDTH:0.581958
G1 X109.573 Y106.887 E.065
G1 X109.72 Y107.139 E.01885
G1 X109.766 Y107.158 E.0032
;WIDTH:0.546654
G1 X109.812 Y107.177 E.00298
;WIDTH:0.51135
G1 X109.858 Y107.196 E.00276
;WIDTH:0.513816
G1 X110.004 Y107.172 E.00831
G1 X110.811 Y105.496 F9000
;WIDTH:0.526721
G1 F1200
G1 X110.93 Y105.049 E.02666
G1 X116.298 Y106.488 E.32046
G1 X116.178 Y106.934 E.02666
G1 X110.869 Y105.511 E.317
G1 X111.085 Y105.205 F9000
G1 X109.07 Y105.049
;WIDTH:0.526693
G1 F1200
G1 X109.189 Y105.496 E.02666
G1 X103.822 Y106.934 E.32044
G1 X103.702 Y106.488 E.02666
G1 X109.012 Y105.065 E.31698
G1 X108.977 Y105.438 F9000
G1 E-7 F3600
;WIPE_START
G1 F7200
G1 X109.189 Y105.496 E-.22144
G1 X103.844 Y106.928 E-2.62856
;WIPE_END
G1 E-.15 F3600
G1 X111.304 Y103.672 F9000
G1 E10 F2400
;WIDTH:0.526119
G1 F1200
G1 X111.451 Y103.233 E.02665
G1 X116.556 Y104.601 E.30435
;WIDTH:0.525875
G1 X116.755 Y104.655 E.01187
G1 X116.663 Y105.108 E.02661
G1 X116.437 Y105.047 E.01352
;WIDTH:0.526119
G1 X111.362 Y103.687 E.30257
G1 E-7 F3600
;WIPE_START
G1 F7200
G1 X111.451 Y103.233 E-.21983
G1 X116.556 Y104.601 E-2.51023
G1 X116.755 Y104.655 E-.09791
G1 X116.746 Y104.7 E-.02203
;WIPE_END
G1 E-.15 F3600
G1 X108.697 Y103.672 F9000
G1 E10 F2400
;WIDTH:0.523892
G1 F1200
G1 X108.471 Y103.733 E.01341
;WIDTH:0.525671
G1 X103.337 Y105.108 E.30583
G1 X103.245 Y104.655 E.0266
G1 X108.353 Y103.289 E.30421
;WIDTH:0.523892
G1 X108.552 Y103.236 E.01181
G1 X108.678 Y103.616 E.02294
G1 X108.465 Y103.648 F9000
G1 X107.785 Y102.091
;WIDTH:0.42
G1 F1200
G1 X107.394 Y102.212 E.01817
G1 X106.315 Y102.413 E.04867
G1 X105.577 Y102.606 E.03384
G1 X104.409 Y102.936 E.05384
G1 X103.324 Y103.306 E.05085
G1 X103.555 Y102.858 E.02238
G1 X104.31 Y102.266 E.04257
G1 X104.739 Y102.039 E.02151
G1 X105.373 Y101.836 E.02954
G1 X105.882 Y101.727 E.0231
G1 X106.362 Y101.692 E.02132
G1 X106.892 Y101.742 E.02363
G1 X107.405 Y101.842 E.02319
G1 X107.735 Y102.058 E.01749
G1 X107.386 Y102.122 F9000
G1 X106.356 Y102.046
;TYPE:Perimeter
;WIDTH:0.460593
G1 F1200
G1 X105.916 Y102.134 E.02218
;WIDTH:0.505539
G1 X105.476 Y102.221 E.02469
G1 X104.887 Y102.397 E.03381
G1 E-7 F3600
;WIPE_START
G1 F7200
G1 X105.476 Y102.221 E-.29191
G1 X105.916 Y102.134 E-.21316
G1 X106.356 Y102.046 E-.21316
;WIPE_END
G1 E-2.28176 F3600
G1 X112.219 Y102.096 F9000
G1 E10 F2400
;TYPE:External perimeter
;WIDTH:0.42
G1 F1200
G1 X112.236 Y102.057 E.00186
G1 X112.598 Y101.841 E.0187
G1 X113.206 Y101.73 E.02743
G1 X113.608 Y101.701 E.01783
G1 X114.167 Y101.734 E.02486
G1 X114.83 Y101.892 E.03021
G1 X115.342 Y102.077 E.02415
G1 X115.757 Y102.306 E.02104
G1 X116.414 Y102.832 E.03734
G1 X116.686 Y103.276 E.02312
G1 X116.239 Y103.194 E.02016
G1 X115.771 Y103.001 E.02247
G1 X114.614 Y102.658 E.05351
G1 X113.525 Y102.371 E.04995
G1 X112.654 Y102.233 E.03913
G1 X112.276 Y102.114 E.01754
G1 X112.251 Y102.069 F9000
G1 E-7 F3600
;WIPE_START
G1 F7200
G1 X112.236 Y102.057 E-.03283
G1 X112.598 Y101.841 E-.20031
G1 X113.206 Y101.73 E-.29377
G1 X113.608 Y101.701 E-.19099
G1 X114.167 Y101.734 E-.26622
G1 X114.83 Y101.892 E-.32356
G1 X115.342 Y102.077 E-.25862
G1 X115.757 Y102.306 E-.22527
G1 X116.414 Y102.832 E-.39986
G1 X116.686 Y103.276 E-.24757
G1 X116.239 Y103.194 E-.21594
G1 X115.859 Y103.038 E-.19505
;WIPE_END
G1 E-.15 F3600
G1 X115.213 Y102.434 F9000
G1 E10 F2400
;TYPE:Perimeter
;WIDTH:0.503997
G1 F1200
G1 X114.716 Y102.274 E.02867
G1 X114.102 Y102.119 E.0347
;WIDTH:0.489385
G1 X113.924 Y102.087 E.00957
;WIDTH:0.460882
G1 X113.747 Y102.055 E.00892
M106 S255
;LAYER_CHANGE
;Z:0.6
;HEIGHT:0.3
;BEFORE_LAYER_CHANGE
G92 E0
;0.6


G1 E-7 F3600
;WIPE_START
G1 F7200
G1 X113.924 Y102.087 E-.08572
G1 X114.102 Y102.119 E-.08572
G1 X114.716 Y102.274 E-.3006
G1 X115.213 Y102.434 E-.24833
;WIPE_END
G1 E-2.27963 F3600
G1 Z.6 F9000
;AFTER_LAYER_CHANGE
;0.6
M104 S205 ; set temperature
G1 X116.843 Y98.363
G1 E10 F2400
;TYPE:Skirt/Brim
;WIDTH:0.42
G1 F1520
G1 X117.215 Y98.512 E.01777
G1 X118.114 Y99.051 E.0465
G1 X118.93 Y99.741 E.04738
G1 X119.641 Y100.58 E.04879
G1 X120.198 Y101.522 E.04853
G1 X120.574 Y102.486 E.0459
G1 X120.767 Y103.457 E.04393
G1 X120.852 Y104.425 E.0431
G1 X120.738 Y105.59 E.05191
G1 X119.189 Y111.431 E.26803
G1 X118.582 Y112.855 E.06866
G1 X117.424 Y114.32 E.08283
G1 X116.543 Y115.018 E.04986
G1 X115.333 Y115.643 E.06042
G1 X113.841 Y116.028 E.06834
G1 X112.958 Y116.086 E.03924
G1 X106.52 Y116.067 E.28554
G1 X105.112 Y115.799 E.06359
G1 X103.69 Y115.164 E.06909
G1 X102.819 Y114.537 E.04757
G1 X102.24 Y113.96 E.03628
G1 X101.685 Y113.256 E.03975
G1 X101.183 Y112.408 E.0437
G1 X100.772 Y111.295 E.05265
G1 X99.371 Y106.067 E.24008
G1 X99.158 Y104.731 E.06001
G1 X99.226 Y103.515 E.054
G1 X99.495 Y102.27 E.05649
G1 X100.048 Y101.062 E.05894
G1 X100.868 Y99.952 E.06121
G1 X102.002 Y98.97 E.06654
G1 X103.143 Y98.347 E.05765
G1 X104.572 Y97.891 E.06655
G1 X106.203 Y97.671 E.07298
G1 X113.904 Y97.673 E.34157
G1 X114.92 Y97.783 E.04536
G1 X116.219 Y98.113 E.05942
G1 X116.787 Y98.341 E.02716
G1 X116.655 Y98.67 F9000
G1 F1520
G1 X117.076 Y98.84 E.02012
G1 X117.905 Y99.338 E.04291
G1 X118.676 Y99.99 E.04481
G1 X119.35 Y100.785 E.04621
G1 X119.876 Y101.673 E.04581
G1 X120.234 Y102.587 E.04351
G1 X120.496 Y104.421 E.08217
G1 X120.389 Y105.521 E.04901
G1 X118.849 Y111.326 E.26638
G1 X118.274 Y112.678 E.06517
G1 X117.182 Y114.06 E.07814
G1 X116.342 Y114.724 E.04747
G1 X115.209 Y115.31 E.05661
G1 X113.799 Y115.675 E.06458
G1 X112.958 Y115.73 E.03739
G1 X106.548 Y115.712 E.28431
G1 X105.212 Y115.458 E.06032
G1 X103.868 Y114.856 E.06533
G1 X103.046 Y114.264 E.04493
G1 X102.516 Y113.735 E.03319
G1 X101.968 Y113.041 E.03925
G1 X101.503 Y112.251 E.04064
G1 X101.115 Y111.203 E.04957
G1 X99.696 Y105.903 E.24335
G1 X99.505 Y104.514 E.06217
G1 X99.637 Y103.149 E.06086
G1 X99.9 Y102.193 E.04394
G1 X100.38 Y101.199 E.04898
G1 X101.214 Y100.102 E.06111
G1 X102.2 Y99.265 E.05736
G1 X103.285 Y98.674 E.05481
G1 X104.658 Y98.236 E.06391
G1 X106.205 Y98.026 E.06928
G1 X113.89 Y98.028 E.34085
G1 X114.853 Y98.132 E.04298
G1 X116.112 Y98.452 E.0576
G1 X116.599 Y98.648 E.02329
G1 E-7 F3600
;WIPE_START
G1 F7200
G1 X117.076 Y98.84 E-.24392
G1 X117.905 Y99.338 E-.45958
G1 X118.676 Y99.99 E-.47985
G1 X119.35 Y100.785 E-.49484
G1 X119.876 Y101.673 E-.49058
G1 X120.234 Y102.587 E-.46597
G1 X120.298 Y103.036 E-.21526
;WIPE_END
G1 E-.15 F3600
G1 X109.622 Y107.924 F9000
G1 E10 F2400
;TYPE:Perimeter
;WIDTH:0.44
G1 F1520
G1 X109.676 Y107.954 E.00291
G1 X110.128 Y107.989 E.0212
G1 X110.496 Y107.883 E.01795
G1 X110.779 Y107.648 E.01723
G1 X110.95 Y107.311 E.01775
G1 X111.831 Y104.025 E.15938
G1 X111.994 Y103.496 E.02593
G1 X112.263 Y103.048 E.02447
G1 X112.638 Y102.699 E.02401
G1 X113.111 Y102.467 E.02468
G1 X113.499 Y102.379 E.01861
G1 X114.005 Y102.377 E.02372
G1 X114.662 Y102.531 E.03162
G1 X115.16 Y102.723 E.02501
G1 X115.467 Y102.924 E.01717
G1 X115.748 Y103.205 E.01864
G1 X115.964 Y103.54 E.01868
G1 X116.108 Y103.927 E.01933
G1 X116.163 Y104.294 E.0174
G1 X116.134 Y104.724 E.02016
G1 X114.663 Y110.219 E.26651
G1 X114.448 Y110.628 E.02164
G1 X114.088 Y111.007 E.02452
G1 X113.792 Y111.2 E.01654
G1 X113.247 Y111.371 E.02676
G1 X112.646 Y111.369 E.02816
G1 X111.921 Y111.182 E.03509
G1 X111.424 Y111 E.02478
G1 X111.043 Y110.734 E.0218
G1 X110.688 Y110.332 E.02509
G1 X110.459 Y110.145 E.01387
G1 X110.094 Y110.027 E.01795
G1 X109.71 Y110.069 E.01811
G1 X109.37 Y110.271 E.01855
G1 X109.01 Y110.683 E.02562
G1 X108.485 Y111.043 E.02982
G1 X107.339 Y111.369 E.05583
G1 X106.734 Y111.373 E.02833
G1 X106.421 Y111.287 E.01522
G1 X106.075 Y111.118 E.01805
G1 X105.634 Y110.736 E.02733
G1 X105.425 Y110.413 E.01802
G1 X105.274 Y110.021 E.01968
G1 X103.973 Y105.152 E.23613
G1 X103.856 Y104.62 E.02551
G1 X103.853 Y104.123 E.02327
G1 X104.013 Y103.6 E.02564
G1 X104.295 Y103.152 E.02478
G1 X104.708 Y102.807 E.02521
G1 X105.244 Y102.56 E.02765
G1 X105.767 Y102.428 E.02528
G1 X106.292 Y102.358 E.0248
G1 X106.797 Y102.432 E.02391
G1 X107.216 Y102.609 E.02131
G1 X107.559 Y102.863 E.01999
G1 X107.867 Y103.233 E.02257
G1 X108.073 Y103.674 E.02279
G1 X109.05 Y107.311 E.17645
G1 X109.104 Y107.46 E.00741
G1 X109.33 Y107.762 E.01767
G1 X109.569 Y107.895 E.01282
G1 X109.776 Y107.576 F9000
G1 F1520
G1 X109.899 Y107.615 E.00606
G1 X110.203 Y107.598 E.01428
G1 X110.458 Y107.446 E.01388
G1 X110.587 Y107.213 E.01246
G1 X111.468 Y103.927 E.15938
G1 X111.647 Y103.349 E.02838
G1 X111.97 Y102.812 E.02935
G1 X112.289 Y102.498 E.02099
G1 X112.79 Y102.179 E.02781
G1 X113.2 Y102.04 E.02026
G1 X113.66 Y101.979 E.02175
G1 X114.059 Y102.004 E.01875
G1 X114.773 Y102.171 E.03433
G1 X115.332 Y102.387 E.02809
G1 X115.705 Y102.631 E.02086
G1 X116.041 Y102.968 E.02232
G1 X116.302 Y103.371 E.02246
G1 X116.474 Y103.833 E.02311
G1 X116.54 Y104.279 E.02113
G1 X116.507 Y104.785 E.02376
G1 X115.018 Y110.343 E.26958
G1 X114.748 Y110.858 E.02722
G1 X114.33 Y111.298 E.02842
G1 X113.963 Y111.538 E.02056
G1 X113.49 Y111.714 E.02363
G1 X113.116 Y111.771 E.01774
G1 X112.588 Y111.742 E.02474
G1 X111.827 Y111.545 E.03683
G1 X111.244 Y111.333 E.02909
G1 X110.791 Y111.016 E.02589
